;FLAVOR:UltiGCode
;TIME:5482
;MATERIAL:6666
;MATERIAL2:0
;NOZZLE_DIAMETER:0.000000
;NOZZLE_DIAMETER2:0.000000

;Layer count: 68
;LAYER:0
M107
G0 F9000 X48.511 Y66.132 Z0.300
;TYPE:SKIRT
G1 F1200 X51.577 Y65.268 E0.38225
G1 X53.010 Y65.227 E0.55428
G1 X53.431 Y65.228 E0.60480
G1 X53.670 Y65.227 E0.63348
G1 X53.920 Y65.228 E0.66348
G1 X54.449 Y65.227 E0.72696
G1 X54.684 Y65.228 E0.75516
G1 X54.934 Y65.227 E0.78516
G1 X55.339 Y65.228 E0.83376
G1 X55.570 Y65.227 E0.86148
G1 X55.799 Y65.228 E0.88896
G1 X56.351 Y65.227 E0.95520
G1 X56.645 Y65.228 E0.99048
G1 X57.120 Y65.227 E1.04748
G1 X58.184 Y65.228 E1.17516
G1 X58.907 Y65.227 E1.26192
G1 X59.931 Y65.228 E1.38480
G1 X61.090 Y65.227 E1.52388
G1 X62.912 Y65.227 E1.74252
G1 X64.511 Y65.228 E1.93440
G1 X67.195 Y65.227 E2.25648
G1 X69.560 Y65.228 E2.54028
G1 X72.867 Y65.228 E2.93712
G1 X76.637 Y65.227 E3.38952
G1 X80.442 Y65.228 E3.84612
G1 X84.771 Y65.227 E4.36560
G1 X89.143 Y65.227 E4.89024
G1 X92.985 Y65.228 E5.35128
G1 X96.877 Y65.227 E5.81832
G1 X100.302 Y65.228 E6.22932
G1 X102.842 Y65.228 E6.53412
G1 X105.741 Y65.227 E6.88200
G1 X107.847 Y65.228 E7.13472
G1 X110.240 Y65.227 E7.42188
G1 X112.639 Y65.227 E7.70976
G1 X114.745 Y65.228 E7.96248
G1 X117.638 Y65.227 E8.30964
G1 X120.187 Y65.228 E8.61552
G1 X123.604 Y65.228 E9.02556
G1 X127.499 Y65.227 E9.49296
G1 X131.341 Y65.228 E9.95400
G1 X135.711 Y65.227 E10.47840
G1 X140.041 Y65.227 E10.99800
G1 X143.845 Y65.228 E11.45448
G1 X147.611 Y65.227 E11.90640
G1 X150.924 Y65.228 E12.30396
G1 X153.278 Y65.228 E12.58644
G1 X155.967 Y65.227 E12.90912
G1 X157.558 Y65.228 E13.10004
G1 X159.366 Y65.227 E13.31700
G1 X160.518 Y65.227 E13.45524
G1 X161.519 Y65.228 E13.57536
G1 X162.214 Y65.227 E13.65876
G1 X162.825 Y65.228 E13.73208
G1 X163.668 Y65.227 E13.83324
G1 X163.901 Y65.228 E13.86120
G1 X164.311 Y65.227 E13.91040
G1 X164.424 Y65.228 E13.92396
G1 X164.478 Y65.227 E13.93045
G1 X164.626 Y65.228 E13.94821
G1 X164.738 Y65.227 E13.96165
G1 X164.892 Y65.228 E13.98013
G1 X165.178 Y65.227 E14.01445
G1 X165.348 Y65.228 E14.03485
G1 X165.597 Y65.227 E14.06473
G1 X166.183 Y65.228 E14.13505
G1 X166.581 Y65.227 E14.18281
G1 X166.987 Y65.228 E14.23153
G1 X167.883 Y65.227 E14.33905
G1 X168.276 Y65.228 E14.38621
G1 X168.672 Y65.227 E14.43373
G1 X169.269 Y65.228 E14.50537
G1 X169.662 Y65.227 E14.55253
G1 X170.585 Y65.252 E14.66333
G1 X172.328 Y65.494 E14.87450
G1 X175.019 Y66.685 E15.22763
G1 X177.523 Y69.521 E15.68162
G1 X178.203 Y72.388 E16.03520
G1 X178.240 Y73.857 E16.21154
G1 X178.239 Y74.494 E16.28798
G1 X178.240 Y74.833 E16.32866
G1 X178.239 Y75.212 E16.37414
G1 X178.240 Y76.010 E16.46990
G1 X178.239 Y76.384 E16.51478
G1 X178.240 Y76.711 E16.55402
G1 X178.239 Y77.259 E16.61978
G1 X178.240 Y77.502 E16.64894
G1 X178.239 Y77.692 E16.67174
G1 X178.240 Y77.950 E16.70270
G1 X178.239 Y78.028 E16.71206
G1 X178.240 Y78.108 E16.72166
G1 X178.239 Y78.272 E16.74134
G1 X178.240 Y78.387 E16.75514
G1 X178.239 Y78.597 E16.78034
G1 X178.241 Y78.992 E16.82774
G1 X178.240 Y79.277 E16.86194
G1 X178.241 Y79.708 E16.91366
G1 X178.240 Y80.752 E17.03894
G1 X178.241 Y81.449 E17.12258
G1 X178.240 Y82.311 E17.22602
G1 X178.241 Y83.269 E17.34098
G1 X178.241 Y84.535 E17.49290
G1 X178.240 Y85.645 E17.62610
G1 X178.241 Y87.210 E17.81390
G1 X178.240 Y88.598 E17.98046
G1 X178.240 Y90.271 E18.18122
G1 X178.241 Y92.182 E18.41054
G1 X178.240 Y94.044 E18.63398
G1 X178.241 Y96.153 E18.88706
G1 X178.241 Y98.340 E19.14950
G1 X178.240 Y100.262 E19.38014
G1 X178.241 Y102.376 E19.63382
G1 X178.240 Y104.243 E19.85786
G1 X178.240 Y105.925 E20.05970
G1 X178.241 Y107.844 E20.28998
G1 X178.240 Y109.449 E20.48258
G1 X178.241 Y111.261 E20.70002
G1 X178.241 Y113.083 E20.91866
G1 X178.240 Y114.686 E21.11102
G1 X178.241 Y116.599 E21.34058
G1 X178.240 Y118.292 E21.54374
G1 X178.240 Y120.148 E21.76646
G1 X178.241 Y122.267 E22.02074
G1 X178.240 Y124.187 E22.25114
G1 X178.241 Y126.360 E22.51190
G1 X178.241 Y128.465 E22.76450
G1 X178.240 Y130.315 E22.98650
G1 X178.241 Y132.195 E23.21211
G1 X178.240 Y133.857 E23.41155
G1 X178.240 Y135.195 E23.57211
G1 X178.241 Y136.725 E23.75571
G1 X178.240 Y137.796 E23.88423
G1 X178.241 Y138.997 E24.02835
G1 X178.241 Y139.936 E24.14103
G1 X178.240 Y140.761 E24.24003
G1 X178.241 Y141.441 E24.32163
G1 X178.240 Y142.060 E24.39591
G1 X178.241 Y142.970 E24.50511
G1 X178.240 Y143.278 E24.54207
G1 X178.241 Y143.811 E24.60603
G1 X178.240 Y144.031 E24.63243
G1 X178.241 Y144.133 E24.64467
G1 X178.240 Y144.427 E24.67995
G1 X178.241 Y144.531 E24.69243
G1 X178.240 Y144.720 E24.71511
G1 X178.241 Y145.010 E24.74991
G1 X178.240 Y145.215 E24.77451
G1 X178.241 Y145.430 E24.80031
G1 X178.240 Y146.023 E24.87147
G1 X178.241 Y146.388 E24.91527
G1 X178.240 Y146.789 E24.96339
G1 X178.241 Y147.642 E25.06575
G1 X178.240 Y148.037 E25.11315
G1 X178.241 Y148.391 E25.15563
G1 X178.240 Y148.974 E25.22559
G1 X178.242 Y149.378 E25.27407
G1 X178.191 Y150.570 E25.41724
G1 X177.629 Y153.117 E25.73023
G1 X175.436 Y155.988 E26.16376
G1 X172.597 Y157.451 E26.54702
G1 X170.591 Y157.748 E26.79036
G1 X169.353 Y157.771 E26.93895
G1 X168.692 Y157.770 E27.01827
G1 X168.286 Y157.771 E27.06699
G1 X167.878 Y157.770 E27.11595
G1 X166.983 Y157.771 E27.22335
G1 X166.594 Y157.770 E27.27003
G1 X166.208 Y157.771 E27.31635
G1 X165.636 Y157.770 E27.38499
G1 X165.338 Y157.771 E27.42075
G1 X165.164 Y157.770 E27.44163
G1 X164.853 Y157.771 E27.47895
G1 X164.774 Y157.770 E27.48843
G1 X164.694 Y157.771 E27.49803
G1 X164.517 Y157.770 E27.51927
G1 X164.452 Y157.771 E27.52707
G1 X164.278 Y157.770 E27.54795
G1 X163.905 Y157.771 E27.59271
G1 X163.666 Y157.770 E27.62139
G1 X163.241 Y157.771 E27.67239
G1 X162.238 Y157.770 E27.79275
G1 X161.543 Y157.771 E27.87615
G1 X160.530 Y157.770 E27.99771
G1 X159.385 Y157.771 E28.13511
G1 X157.567 Y157.771 E28.35327
G1 X155.973 Y157.770 E28.54455
G1 X153.289 Y157.771 E28.86663
G1 X150.924 Y157.770 E29.15043
G1 X147.617 Y157.770 E29.54727
G1 X143.847 Y157.771 E29.99967
G1 X140.042 Y157.770 E30.45627
G1 X135.713 Y157.771 E30.97575
G1 X131.341 Y157.771 E31.50039
G1 X127.499 Y157.770 E31.96143
G1 X123.607 Y157.771 E32.42847
G1 X120.182 Y157.770 E32.83947
G1 X117.642 Y157.770 E33.14427
G1 X114.743 Y157.771 E33.49215
G1 X112.637 Y157.770 E33.74487
G1 X110.244 Y157.771 E34.03203
G1 X107.845 Y157.771 E34.31991
G1 X105.736 Y157.770 E34.57299
G1 X102.844 Y157.770 E34.92003
G1 X100.297 Y157.769 E35.22567
G1 X96.880 Y157.769 E35.63571
G1 X92.985 Y157.770 E36.10311
G1 X89.143 Y157.769 E36.56415
G1 X84.773 Y157.770 E37.08855
G1 X80.442 Y157.770 E37.60827
G1 X76.637 Y157.769 E38.06487
G1 X72.870 Y157.770 E38.51691
G1 X69.555 Y157.769 E38.91471
G1 X67.199 Y157.769 E39.19743
G1 X64.508 Y157.770 E39.52035
G1 X62.910 Y157.769 E39.71211
G1 X61.095 Y157.770 E39.92991
G1 X59.927 Y157.770 E40.07007
G1 X58.912 Y157.769 E40.19187
G1 X58.188 Y157.770 E40.27875
G1 X57.552 Y157.769 E40.35507
G1 X56.625 Y157.770 E40.46631
G1 X56.332 Y157.769 E40.50147
G1 X55.766 Y157.770 E40.56939
G1 X55.568 Y157.769 E40.59315
G1 X55.365 Y157.770 E40.61751
G1 X54.952 Y157.769 E40.66707
G1 X54.681 Y157.770 E40.69959
G1 X54.424 Y157.769 E40.73043
G1 X53.892 Y157.770 E40.79427
G1 X53.671 Y157.769 E40.82079
G1 X53.452 Y157.770 E40.84707
G1 X53.136 Y157.769 E40.88499
G1 X52.755 Y157.771 E40.93072
G1 X51.325 Y157.689 E41.10260
G1 X48.220 Y156.692 E41.49393
G1 X45.721 Y153.848 E41.94825
G1 X44.820 Y151.218 E42.28185
G1 X44.741 Y149.412 E42.49878
G1 X44.739 Y148.969 E42.55194
G1 X44.740 Y148.381 E42.62250
G1 X44.739 Y148.017 E42.66618
G1 X44.740 Y147.616 E42.71430
G1 X44.739 Y146.764 E42.81654
G1 X44.740 Y146.368 E42.86406
G1 X44.739 Y146.012 E42.90678
G1 X44.740 Y145.424 E42.97734
G1 X44.738 Y145.002 E43.02798
G1 X44.819 Y143.273 E43.23569
G1 X45.596 Y140.764 E43.55088
G1 X48.054 Y137.745 E44.01805
G1 X51.444 Y136.636 E44.44606
G1 X53.343 Y136.596 E44.67399
G1 X54.128 Y136.592 E44.76819
G1 X54.647 Y136.590 E44.83047
G1 X55.986 Y136.584 E44.99116
G1 X56.346 Y136.583 E45.03436
G1 X56.628 Y136.584 E45.06820
G1 X57.112 Y136.582 E45.12628
G1 X58.184 Y136.583 E45.25492
G1 X58.907 Y136.582 E45.34168
G1 X59.931 Y136.583 E45.46456
G1 X61.090 Y136.582 E45.60364
G1 X62.915 Y136.582 E45.82264
G1 X64.519 Y136.584 E46.01512
G1 X67.198 Y136.584 E46.33660
G1 X69.564 Y136.586 E46.62052
G1 X72.874 Y136.588 E47.01772
G1 X76.640 Y136.588 E47.46964
G1 X80.448 Y136.591 E47.92660
G1 X84.776 Y136.592 E48.44596
G1 X92.990 Y136.598 E49.43164
G1 X96.884 Y136.600 E49.89892
G1 X102.854 Y136.607 E50.61532
G1 X105.749 Y136.608 E50.96272
G1 X107.861 Y136.612 E51.21616
G1 X110.250 Y136.614 E51.50284
G1 X112.648 Y136.617 E51.79060
G1 X114.756 Y136.620 E52.04356
G1 X117.648 Y136.622 E52.39060
G1 X120.197 Y136.626 E52.69648
G1 X127.506 Y136.630 E53.57356
G1 X131.350 Y136.634 E54.03484
G1 X135.716 Y136.635 E54.55876
G1 X140.048 Y136.637 E55.07860
G1 X143.856 Y136.641 E55.53556
G1 X147.618 Y136.642 E55.98700
G1 X150.932 Y136.644 E56.38468
G1 X153.291 Y136.645 E56.66776
G1 X155.980 Y136.645 E56.99044
G1 X156.797 Y136.646 E57.08848
G1 X156.796 Y135.235 E57.25780
G1 X156.797 Y133.883 E57.42004
G1 X156.797 Y132.232 E57.61816
G1 X156.796 Y130.346 E57.84448
G1 X156.797 Y128.493 E58.06684
G1 X156.796 Y126.396 E58.31848
G1 X156.796 Y124.211 E58.58068
G1 X156.797 Y122.291 E58.81108
G1 X156.796 Y120.176 E59.06488
G1 X156.797 Y118.307 E59.28916
G1 X156.797 Y116.623 E59.49124
G1 X156.796 Y114.702 E59.72176
G1 X156.797 Y113.097 E59.91436
G1 X156.796 Y111.283 E60.13204
G1 X156.796 Y109.458 E60.35104
G1 X156.797 Y107.854 E60.54352
G1 X156.796 Y105.939 E60.77332
G1 X156.797 Y104.245 E60.97660
G1 X156.797 Y102.387 E61.19956
G1 X156.796 Y100.266 E61.45408
G1 X156.797 Y98.342 E61.68496
G1 X156.796 Y96.162 E61.94656
G1 X156.796 Y94.043 E62.20084
G1 X156.797 Y92.180 E62.42440
G1 X156.796 Y90.273 E62.65324
G1 X156.797 Y88.588 E62.85544
G1 X156.797 Y87.211 E63.02068
G1 X156.796 Y85.960 E63.17080
G1 X155.971 Y85.959 E63.26980
G1 X153.288 Y85.960 E63.59176
G1 X150.923 Y85.959 E63.87556
G1 X147.617 Y85.959 E64.27228
G1 X143.847 Y85.960 E64.72468
G1 X140.042 Y85.959 E65.18128
G1 X135.714 Y85.960 E65.70064
G1 X131.342 Y85.960 E66.22528
G1 X127.500 Y85.959 E66.68632
G1 X123.608 Y85.960 E67.15336
G1 X120.183 Y85.959 E67.56436
G1 X117.643 Y85.959 E67.86916
G1 X114.744 Y85.960 E68.21704
G1 X112.638 Y85.959 E68.46976
G1 X110.244 Y85.960 E68.75704
G1 X107.845 Y85.960 E69.04492
G1 X105.739 Y85.959 E69.29764
G1 X102.846 Y85.960 E69.64480
G1 X100.297 Y85.959 E69.95068
G1 X96.880 Y85.959 E70.36072
G1 X92.985 Y85.960 E70.82812
G1 X89.143 Y85.959 E71.28916
G1 X84.773 Y85.960 E71.81356
G1 X80.442 Y85.960 E72.33328
G1 X76.637 Y85.959 E72.78988
G1 X72.870 Y85.960 E73.24192
G1 X69.555 Y85.959 E73.63972
G1 X67.199 Y85.959 E73.92244
G1 X64.508 Y85.960 E74.24536
G1 X62.910 Y85.959 E74.43712
G1 X61.095 Y85.960 E74.65492
G1 X59.927 Y85.960 E74.79508
G1 X58.912 Y85.959 E74.91688
G1 X58.188 Y85.960 E75.00376
G1 X57.552 Y85.959 E75.08008
G1 X56.625 Y85.960 E75.19132
G1 X56.332 Y85.959 E75.22648
G1 X55.766 Y85.960 E75.29440
G1 X55.568 Y85.959 E75.31816
G1 X55.365 Y85.960 E75.34252
G1 X54.952 Y85.959 E75.39208
G1 X54.681 Y85.960 E75.42460
G1 X54.424 Y85.959 E75.45544
G1 X53.892 Y85.960 E75.51928
G1 X53.671 Y85.959 E75.54580
G1 X53.452 Y85.960 E75.57208
G1 X53.136 Y85.959 E75.61000
G1 X52.755 Y85.961 E75.65573
G1 X51.492 Y85.888 E75.80754
G1 X48.634 Y85.102 E76.16323
G1 X45.932 Y82.446 E76.61789
G1 X44.811 Y79.550 E76.99054
G1 X44.739 Y77.367 E77.25264
G1 X44.740 Y76.701 E77.33256
G1 X44.739 Y76.362 E77.37324
G1 X44.740 Y75.983 E77.41872
G1 X44.739 Y75.185 E77.51448
G1 X44.740 Y74.811 E77.55936
G1 X44.739 Y74.484 E77.59860
G1 X44.740 Y73.935 E77.66448
G1 X44.738 Y73.515 E77.71488
G1 X44.836 Y71.635 E77.94079
G1 X45.848 Y68.889 E78.29197
G1 X48.511 Y66.132 E78.75194
G0 F9000 X48.724 Y66.488
G1 F1200 X51.638 Y65.667 E79.11524
G1 X53.015 Y65.627 E79.28055
G1 X53.432 Y65.628 E79.33059
G1 X53.670 Y65.627 E79.35915
G1 X53.918 Y65.628 E79.38891
G1 X54.448 Y65.627 E79.45251
G1 X54.684 Y65.628 E79.48083
G1 X54.935 Y65.627 E79.51095
G1 X55.339 Y65.628 E79.55943
G1 X55.569 Y65.627 E79.58703
G1 X55.799 Y65.628 E79.61463
G1 X56.350 Y65.627 E79.68075
G1 X56.644 Y65.628 E79.71603
G1 X57.120 Y65.627 E79.77315
G1 X58.185 Y65.628 E79.90095
G1 X58.907 Y65.627 E79.98759
G1 X59.931 Y65.628 E80.11047
G1 X61.090 Y65.627 E80.24955
G1 X62.912 Y65.627 E80.46819
G1 X64.511 Y65.628 E80.66007
G1 X67.195 Y65.627 E80.98215
G1 X69.560 Y65.628 E81.26595
G1 X72.867 Y65.628 E81.66279
G1 X76.637 Y65.627 E82.11519
G1 X80.442 Y65.628 E82.57179
G1 X84.771 Y65.627 E83.09127
G1 X89.143 Y65.627 E83.61591
G1 X92.985 Y65.628 E84.07695
G1 X96.877 Y65.627 E84.54399
G1 X100.302 Y65.628 E84.95499
G1 X102.842 Y65.628 E85.25979
G1 X105.740 Y65.627 E85.60755
G1 X107.847 Y65.628 E85.86039
G1 X110.240 Y65.627 E86.14755
G1 X112.639 Y65.627 E86.43543
G1 X114.745 Y65.628 E86.68815
G1 X117.638 Y65.627 E87.03531
G1 X120.187 Y65.628 E87.34119
G1 X123.604 Y65.628 E87.75123
G1 X127.499 Y65.627 E88.21863
G1 X131.341 Y65.628 E88.67967
G1 X135.711 Y65.627 E89.20407
G1 X140.041 Y65.627 E89.72367
G1 X143.845 Y65.628 E90.18015
G1 X147.611 Y65.627 E90.63207
G1 X150.924 Y65.628 E91.02963
G1 X153.278 Y65.628 E91.31211
G1 X155.967 Y65.627 E91.63479
G1 X157.558 Y65.628 E91.82571
G1 X159.366 Y65.627 E92.04267
G1 X160.518 Y65.627 E92.18091
G1 X161.518 Y65.628 E92.30091
G1 X162.214 Y65.627 E92.38443
G1 X162.824 Y65.628 E92.45763
G1 X163.668 Y65.627 E92.55891
G1 X163.900 Y65.628 E92.58675
G1 X164.309 Y65.627 E92.63583
G1 X164.425 Y65.628 E92.64975
G1 X164.479 Y65.627 E92.65623
G1 X164.628 Y65.628 E92.67411
G1 X164.738 Y65.627 E92.68731
G1 X164.890 Y65.628 E92.70555
G1 X165.178 Y65.627 E92.74011
G1 X165.347 Y65.628 E92.76039
G1 X165.598 Y65.627 E92.79051
G1 X166.184 Y65.628 E92.86084
G1 X166.581 Y65.627 E92.90848
G1 X166.987 Y65.628 E92.95720
G1 X167.883 Y65.627 E93.06472
G1 X168.276 Y65.628 E93.11188
G1 X168.672 Y65.627 E93.15940
G1 X169.269 Y65.628 E93.23104
G1 X169.657 Y65.627 E93.27760
G1 X170.552 Y65.651 E93.38503
G1 X172.217 Y65.883 E93.58676
G1 X174.777 Y67.016 E93.92271
G1 X177.157 Y69.711 E94.35416
G1 X177.804 Y72.439 E94.69060
G1 X177.840 Y73.862 E94.86142
G1 X177.839 Y74.493 E94.93714
G1 X177.840 Y74.833 E94.97794
G1 X177.839 Y75.211 E95.02330
G1 X177.840 Y76.010 E95.11918
G1 X177.839 Y76.383 E95.16394
G1 X177.840 Y76.712 E95.20342
G1 X177.839 Y77.258 E95.26894
G1 X177.840 Y77.501 E95.29810
G1 X177.839 Y77.689 E95.32066
G1 X177.840 Y77.948 E95.35174
G1 X177.839 Y78.028 E95.36134
G1 X177.840 Y78.109 E95.37106
G1 X177.839 Y78.273 E95.39074
G1 X177.840 Y78.388 E95.40454
G1 X177.839 Y78.594 E95.42926
G1 X177.841 Y78.992 E95.47702
G1 X177.840 Y79.275 E95.51098
G1 X177.841 Y79.709 E95.56306
G1 X177.840 Y80.751 E95.68810
G1 X177.841 Y81.449 E95.77186
G1 X177.840 Y82.311 E95.87530
G1 X177.841 Y83.269 E95.99026
G1 X177.841 Y84.534 E96.14206
G1 X177.840 Y85.645 E96.27538
G1 X177.841 Y87.210 E96.46318
G1 X177.840 Y88.597 E96.62962
G1 X177.840 Y90.271 E96.83050
G1 X177.841 Y92.182 E97.05982
G1 X177.840 Y94.044 E97.28326
G1 X177.841 Y96.153 E97.53634
G1 X177.841 Y98.340 E97.79878
G1 X177.840 Y100.262 E98.02943
G1 X177.841 Y102.376 E98.28311
G1 X177.840 Y104.243 E98.50715
G1 X177.840 Y105.925 E98.70899
G1 X177.841 Y107.844 E98.93927
G1 X177.840 Y109.449 E99.13187
G1 X177.841 Y111.261 E99.34931
G1 X177.841 Y113.083 E99.56795
G1 X177.840 Y114.686 E99.76031
G1 X177.841 Y116.599 E99.98987
G1 X177.840 Y118.291 E100.19291
G1 X177.840 Y120.148 E100.41575
G1 X177.841 Y122.267 E100.67003
G1 X177.840 Y124.187 E100.90043
G1 X177.841 Y126.360 E101.16119
G1 X177.841 Y128.465 E101.41379
G1 X177.840 Y130.315 E101.63579
G1 X177.841 Y132.195 E101.86139
G1 X177.840 Y133.856 E102.06071
G1 X177.840 Y135.195 E102.22139
G1 X177.841 Y136.725 E102.40499
G1 X177.840 Y137.796 E102.53351
G1 X177.841 Y138.997 E102.67763
G1 X177.841 Y139.936 E102.79031
G1 X177.840 Y140.760 E102.88919
G1 X177.841 Y141.441 E102.97091
G1 X177.840 Y142.059 E103.04507
G1 X177.841 Y142.970 E103.15439
G1 X177.840 Y143.277 E103.19123
G1 X177.841 Y143.810 E103.25519
G1 X177.840 Y144.029 E103.28147
G1 X177.841 Y144.133 E103.29395
