;FLAVOR:UltiGCode
;TIME:18970
;MATERIAL:14356
;MATERIAL2:0
;NOZZLE_DIAMETER:0.000000
;NOZZLE_DIAMETER2:0.000000

;Layer count: 78
;LAYER:0
M107
G0 F9000 X45.758 Y69.800 Z0.300
;TYPE:SKIRT
G1 F1200 X170.114 Y69.800 E14.92272
G1 X170.114 Y76.200 E15.69072
G1 X177.758 Y76.200 E16.60800
G1 X177.758 Y94.600 E18.81600
G1 X170.114 Y94.600 E19.73328
G1 X170.114 Y128.600 E23.81328
G1 X177.758 Y128.600 E24.73056
G1 X177.758 Y147.200 E26.96256
G1 X170.114 Y147.200 E27.87984
G1 X170.114 Y153.200 E28.59984
G1 X45.758 Y153.200 E43.52256
G1 X45.758 Y69.800 E53.53056
G10
G0 F9000 X49.558 Y73.600
;TYPE:WALL-INNER
G11
G1 F1200 X166.314 Y73.600 E67.54128
G1 X166.314 Y149.400 E76.63728
G1 X49.558 Y149.400 E90.64800
G1 X49.558 Y73.600 E99.74400
G0 F9000 X58.272 Y73.984
G1 F1200 X58.271 Y77.763 E100.19748
G1 X64.587 Y77.763 E100.95540
G1 X64.587 Y73.984 E101.40888
G1 X58.272 Y73.984 E102.16668
G0 F9000 X56.829 Y80.829
G1 F1200 X56.829 Y90.029 E103.27068
G1 X66.029 Y90.029 E104.37468
G1 X66.029 Y80.829 E105.47868
G1 X56.829 Y80.829 E106.58268
G0 F9000 X54.077 Y107.421
G1 F1200 X50.061 Y107.434 E107.06460
G1 X50.061 Y116.027 E108.09576
G1 X54.077 Y116.021 E108.57768
G1 X54.077 Y107.421 E109.60968
G0 F9000 X56.829 Y133.400
G1 F1200 X56.829 Y142.600 E110.71368
G1 X66.029 Y142.600 E111.81768
G1 X66.029 Y133.400 E112.92168
G1 X56.829 Y133.400 E114.02568
G0 F9000 X56.888 Y142.541
G0 X58.367 Y145.495
G1 F1200 X58.379 Y148.245 E114.35569
G1 X58.385 Y149.134 E114.46237
G1 X64.501 Y149.134 E115.19629
G1 X64.501 Y145.495 E115.63297
G1 X58.367 Y145.495 E116.36905
G0 F9000 X105.457 Y145.537
G1 F1200 X105.457 Y149.092 E116.79565
G1 X112.931 Y149.092 E117.69253
G1 X112.931 Y145.537 E118.11913
G1 X105.457 Y145.537 E119.01601
G0 F9000 X114.151 Y112.628
G1 F1200 X114.343 Y112.678 E119.03982
G1 X120.046 Y112.678 E119.72418
G1 X120.926 Y112.444 E119.83345
G1 X121.195 Y112.368 E119.86699
G1 X121.894 Y111.671 E119.98544
G1 X122.090 Y111.471 E120.01905
G1 X122.346 Y110.519 E120.13735
G1 X122.396 Y110.327 E120.16116
G1 X122.397 Y107.098 E120.54864
G1 X122.162 Y106.219 E120.65782
G1 X122.086 Y105.951 E120.69125
G1 X121.389 Y105.252 E120.80970
G1 X121.189 Y105.056 E120.84331
G1 X120.237 Y104.800 E120.96160
G1 X120.045 Y104.750 E120.98541
G1 X114.340 Y104.749 E121.67001
G1 X113.461 Y104.984 E121.77920
G1 X113.193 Y105.060 E121.81263
G1 X112.494 Y105.757 E121.93108
G1 X112.298 Y105.957 E121.96468
G1 X112.042 Y106.909 E122.08298
G1 X111.992 Y107.101 E122.10679
G1 X111.991 Y109.869 E122.43895
G1 X111.992 Y110.329 E122.49415
G1 X112.226 Y111.208 E122.60330
G1 X112.302 Y111.477 E122.63685
G1 X112.999 Y112.176 E122.75530
G1 X113.199 Y112.372 E122.78891
G1 X114.151 Y112.628 E122.90720
G0 F9000 X113.000 Y112.176
G0 X112.227 Y111.208
G0 X112.042 Y106.910
G0 X112.494 Y105.758
G0 X113.462 Y104.985
G0 X112.973 Y77.722
G1 F1200 X112.973 Y74.049 E123.34796
G1 X105.415 Y74.049 E124.25492
G1 X105.415 Y77.715 E124.69484
G1 X112.973 Y77.722 E125.60180
G0 F9000 X152.358 Y80.926
G1 F1200 X152.358 Y90.029 E126.69416
G1 X161.558 Y90.029 E127.79816
G1 X161.558 Y80.926 E128.89052
G1 X152.358 Y80.926 E129.99452
G0 F9000 X153.922 Y77.716
G1 F1200 X159.995 Y77.716 E130.72328
G1 X159.995 Y74.026 E131.16608
G1 X153.922 Y74.026 E131.89484
G1 X153.922 Y77.716 E132.33764
G0 F9000 X161.499 Y80.985
G0 X161.499 Y89.970
G0 X152.358 Y133.400
G1 F1200 X152.358 Y142.600 E133.44164
G1 X161.558 Y142.600 E134.54564
G1 X161.558 Y133.397 E135.65000
G1 X152.358 Y133.400 E136.75400
G0 F9000 X152.417 Y142.541
G0 X153.878 Y145.492
G1 F1200 X153.878 Y149.137 E137.19140
G1 X160.039 Y149.137 E137.93072
G1 X160.039 Y145.492 E138.36812
G1 X153.878 Y145.492 E139.10744
G0 F9000 X154.278 Y145.892
;TYPE:WALL-OUTER
G1 F1200 X154.278 Y148.737 E139.44884
G1 X159.639 Y148.737 E140.09216
G1 X159.639 Y145.892 E140.43356
G1 X154.278 Y145.892 E141.07688
G0 F9000 X154.278 Y145.592
G0 X152.417 Y142.541
G0 X152.458 Y142.200
G0 X152.758 Y142.200
G1 F1200 X161.158 Y142.200 E142.08488
G1 X161.158 Y133.797 E143.09324
G1 X152.758 Y133.800 E144.10124
G1 X152.758 Y142.200 E145.10924
G0 F9000 X152.458 Y142.200
G0 X152.417 Y142.541
G0 X159.980 Y145.551
G0 X166.414 Y149.590
G0 X166.714 Y149.800
G1 F1200 X49.158 Y149.800 E159.21596
G1 X49.158 Y73.200 E168.40796
G1 X166.714 Y73.200 E182.51468
G1 X166.714 Y149.800 E191.70668
G0 F9000 X166.414 Y149.590
G0 X112.531 Y148.992
G0 X112.531 Y148.692
G1 F1200 X112.531 Y145.937 E192.03728
G1 X105.857 Y145.937 E192.83816
G1 X105.857 Y148.692 E193.16876
G1 X112.531 Y148.692 E193.96964
G0 F9000 X112.531 Y148.992
G0 X105.516 Y149.033
G0 X105.516 Y145.596
G0 X114.318 Y112.568
G0 X114.394 Y112.278
G1 F1200 X119.994 Y112.278 E194.64164
G1 X120.821 Y112.058 E194.74434
G1 X120.986 Y112.011 E194.76492
G1 X121.610 Y111.390 E194.87057
G1 X121.731 Y111.266 E194.89136
G1 X121.959 Y110.416 E194.99696
G1 X121.996 Y110.276 E195.01434
G1 X121.997 Y107.151 E195.38934
G1 X121.776 Y106.325 E195.49195
G1 X121.729 Y106.160 E195.51253
G1 X121.108 Y105.536 E195.61817
G1 X120.984 Y105.415 E195.63897
G1 X120.134 Y105.187 E195.74457
G1 X119.994 Y105.150 E195.76195
G1 X114.393 Y105.149 E196.43407
G1 X113.567 Y105.370 E196.53667
G1 X113.402 Y105.417 E196.55726
G1 X112.778 Y106.038 E196.66290
G1 X112.657 Y106.162 E196.68369
G1 X112.429 Y107.012 E196.78930
G1 X112.392 Y107.152 E196.80668
G1 X112.392 Y110.276 E197.18156
G1 X112.612 Y111.103 E197.28425
G1 X112.659 Y111.268 E197.30484
G1 X113.280 Y111.892 E197.41048
G1 X113.404 Y112.013 E197.43127
G1 X114.254 Y112.241 E197.53687
G1 X114.394 Y112.278 E197.55425
G0 F9000 X114.318 Y112.568
G0 X113.000 Y112.176
G0 X112.227 Y111.208
G0 X112.042 Y106.910
G0 X112.494 Y105.758
G0 X113.462 Y104.985
G0 X112.572 Y77.621
G0 X112.573 Y77.322
G1 F1200 X112.573 Y74.449 E197.89901
G1 X105.815 Y74.449 E198.70997
G1 X105.815 Y77.315 E199.05389
G1 X112.573 Y77.322 E199.86485
G0 F9000 X112.572 Y77.621
G0 X154.022 Y77.316
G0 X154.322 Y77.316
G1 F1200 X159.595 Y77.316 E200.49761
G1 X159.595 Y74.426 E200.84441
G1 X154.322 Y74.426 E201.47717
G1 X154.322 Y77.316 E201.82397
G0 F9000 X154.022 Y77.316
G0 X152.758 Y81.026
G0 X152.758 Y81.326
G1 F1200 X152.758 Y89.629 E202.82033
G1 X161.158 Y89.629 E203.82833
G1 X161.158 Y81.326 E204.82469
G1 X152.758 Y81.326 E205.83269
G0 F9000 X152.758 Y81.026
G0 X65.629 Y80.929
G0 X65.629 Y81.229
G1 F1200 X57.229 Y81.229 E206.84069
G1 X57.229 Y89.629 E207.84869
G1 X65.629 Y89.629 E208.85669
G1 X65.629 Y81.229 E209.86469
G0 F9000 X65.629 Y80.929
G0 X64.187 Y77.663
G0 X64.187 Y77.363
G1 F1200 X64.187 Y74.384 E210.22217
G1 X58.672 Y74.384 E210.88397
G1 X58.671 Y77.363 E211.24145
G1 X64.187 Y77.363 E211.90337
G0 F9000 X64.187 Y77.663
G0 X65.970 Y80.888
G0 X65.970 Y89.970
G0 X53.677 Y107.522
G0 X53.677 Y107.822
G1 F1200 X50.461 Y107.833 E212.28929
G1 X50.461 Y115.626 E213.22445
G1 X53.677 Y115.622 E213.61037
G1 X53.677 Y107.822 E214.54637
G0 F9000 X53.677 Y107.522
G0 X54.018 Y107.481
G0 X57.229 Y133.500
G0 X57.229 Y133.800
G1 F1200 X57.229 Y142.200 E215.55437
G1 X65.629 Y142.200 E216.56237
G1 X65.629 Y133.800 E217.57037
G1 X57.229 Y133.800 E218.57837
G0 F9000 X57.229 Y133.500
G0 X65.970 Y133.459
G0 X65.970 Y142.541
G0 X58.769 Y145.595
G0 X58.769 Y145.895
G1 F1200 X58.782 Y148.734 E218.91906
G1 X64.101 Y148.734 E219.55734
G1 X64.101 Y145.895 E219.89802
G1 X58.769 Y145.895 E220.53786
G0 F9000 X58.521 Y145.354
;TYPE:SKIN
G1 F900 X49.697 Y136.530 E222.03534
G0 F9000 X49.697 Y137.095
G1 F900 X58.227 Y145.625 E223.48293
G0 F9000 X58.230 Y146.194
G1 F900 X49.697 Y137.661 E224.93103
G0 F9000 X49.697 Y138.227
G1 F900 X58.233 Y146.762 E226.37955
G0 F9000 X58.235 Y147.331
G1 F900 X49.697 Y138.793 E227.82850
G0 F9000 X49.697 Y139.358
G1 F900 X58.238 Y147.899 E229.27795
G0 F9000 X58.241 Y148.468
G1 F900 X49.697 Y139.924 E230.72792
G0 F9000 X49.697 Y135.964
G1 F900 X59.087 Y145.354 E232.32145
G0 F9000 X59.652 Y145.354
G1 F900 X57.038 Y142.739 E232.76515
G0 F9000 X56.689 Y142.390
G1 F900 X49.697 Y135.398 E233.95173
G0 F9000 X49.697 Y134.833
G1 F900 X56.689 Y141.825 E235.13831
G0 F9000 X56.689 Y141.259
G1 F900 X49.697 Y134.267 E236.32489
G0 F9000 X49.697 Y133.701
G1 F900 X56.689 Y140.693 E237.51148
G0 F9000 X56.689 Y140.128
G1 F900 X49.697 Y133.136 E238.69806
G0 F9000 X49.697 Y132.570
G1 F900 X56.689 Y139.562 E239.88464
G0 F9000 X56.689 Y138.996
G1 F900 X49.697 Y132.004 E241.07122
G0 F9000 X49.697 Y131.439
G1 F900 X56.689 Y138.431 E242.25780
G0 F9000 X56.689 Y137.865
G1 F900 X49.697 Y130.873 E243.44438
G0 F9000 X49.697 Y130.307
G1 F900 X56.689 Y137.299 E244.63097
G0 F9000 X56.689 Y136.733
G1 F900 X49.697 Y129.742 E245.81746
G0 F9000 X49.697 Y129.176
G1 F900 X56.689 Y136.168 E247.00404
G0 F9000 X56.689 Y135.602
G1 F900 X49.697 Y128.610 E248.19063
G0 F9000 X49.697 Y128.045
G1 F900 X56.689 Y135.036 E249.37712
G0 F9000 X56.689 Y134.471
G1 F900 X49.697 Y127.479 E250.56370
G0 F9000 X49.697 Y126.913
G1 F900 X56.689 Y133.905 E251.75029
G0 F9000 X56.689 Y133.339
G1 F900 X49.697 Y126.347 E252.93687
G0 F9000 X49.697 Y125.782
G1 F900 X57.174 Y133.259 E254.20576
G0 F9000 X57.740 Y133.259
G1 F900 X49.697 Y125.216 E255.57070
G0 F9000 X49.697 Y124.650
G1 F900 X58.305 Y133.259 E257.03161
G0 F9000 X58.871 Y133.259
G1 F900 X49.697 Y124.085 E258.58849
G0 F9000 X49.697 Y123.519
G1 F900 X59.437 Y133.259 E260.24142
G0 F9000 X60.002 Y133.259
G1 F900 X49.697 Y122.953 E261.99032
G0 F9000 X49.697 Y122.388
G1 F900 X60.568 Y133.259 E263.83519
G0 F9000 X61.134 Y133.259
G1 F900 X49.697 Y121.822 E265.77612
G0 F9000 X49.697 Y121.256
G1 F900 X61.700 Y133.259 E267.81309
G0 F9000 X62.265 Y133.259
G1 F900 X49.697 Y120.691 E269.94595
G0 F9000 X49.697 Y120.125
G1 F900 X62.831 Y133.259 E272.17487
G0 F9000 X63.397 Y133.259
G1 F900 X49.697 Y119.559 E274.49984
G0 F9000 X49.697 Y118.994
G1 F900 X63.962 Y133.259 E276.92069
G0 F9000 X64.528 Y133.259
G1 F900 X49.697 Y118.428 E279.43759
G0 F9000 X49.697 Y117.862
G1 F900 X65.094 Y133.259 E282.05055
G0 F9000 X65.659 Y133.259
G1 F900 X49.697 Y117.296 E284.75947
G0 F9000 X49.697 Y116.731
G1 F900 X82.225 Y149.258 E290.27957
G0 F9000 X82.790 Y149.258
G1 F900 X49.697 Y116.165 E295.89564
G0 F9000 X49.921 Y115.823
G1 F900 X49.809 Y115.428 E295.93358
G1 X49.809 Y114.863 E295.97138
G1 X49.809 Y114.297 E296.00924
G1 X49.809 Y113.731 E296.04711
G1 X49.809 Y113.165 E296.08497
G1 X49.809 Y112.600 E296.12277
G1 X49.809 Y112.034 E296.16064
G1 X49.809 Y111.468 E296.19850
G1 X49.809 Y110.903 E296.23630
G1 X49.809 Y110.337 E296.27417
G1 X49.809 Y109.771 E296.31203
G1 X49.809 Y109.206 E296.34983
G1 X49.809 Y108.640 E296.38770
G1 X49.809 Y108.074 E296.42556
G1 X49.809 Y107.509 E296.46336
G1 X49.697 Y107.114 E296.51263
G0 F9000 X49.697 Y106.548
G1 F900 X50.440 Y107.292 E296.63880
G0 F9000 X51.004 Y107.290
G1 F900 X49.697 Y105.983 E296.86061
G0 F9000 X49.697 Y105.417
G1 F900 X51.567 Y107.287 E297.17796
G0 F9000 X52.132 Y107.286
G1 F900 X49.697 Y104.851 E297.59119
G0 F9000 X49.697 Y104.286
G1 F900 X52.695 Y107.284 E298.09997
G0 F9000 X53.259 Y107.282
G1 F900 X49.697 Y103.720 E298.70446
G0 F9000 X49.697 Y103.154
G1 F900 X53.822 Y107.280 E299.40458
G0 F9000 X54.216 Y107.673
G1 F900 X95.801 Y149.258 E306.46179
G0 F9000 X95.235 Y149.258
G1 F900 X54.216 Y108.239 E313.42295
G0 F9000 X54.216 Y108.805
G1 F900 X94.670 Y149.258 E320.28813
G0 F9000 X94.104 Y149.258
G1 F900 X54.216 Y109.371 E327.05727
G0 F9000 X54.216 Y109.936
G1 F900 X93.538 Y149.258 E333.73043
G0 F9000 X92.973 Y149.258
G1 F900 X54.216 Y110.502 E340.30763
G0 F9000 X54.216 Y111.068
G1 F900 X92.407 Y149.258 E346.78877
G0 F9000 X91.841 Y149.258
G1 F900 X54.216 Y111.633 E353.17394
G0 F9000 X54.216 Y112.199
G1 F900 X91.276 Y149.258 E359.46315
G0 F9000 X90.710 Y149.258
G1 F900 X54.216 Y112.765 E365.65630
G0 F9000 X54.216 Y113.330
G1 F900 X90.144 Y149.258 E371.75349
G0 F9000 X89.579 Y149.258
G1 F900 X54.216 Y113.896 E377.75470
G0 F9000 X54.216 Y114.462
G1 F900 X89.013 Y149.258 E383.65986
G0 F9000 X88.447 Y149.258
G1 F900 X54.216 Y115.027 E389.46906
G0 F9000 X54.216 Y115.593
G1 F900 X87.882 Y149.258 E395.18228
G0 F9000 X87.316 Y149.258
G1 F900 X54.216 Y116.159 E400.79945
G0 F9000 X53.653 Y116.161
G1 F900 X86.750 Y149.258 E406.41620
G0 F9000 X86.185 Y149.258
G1 F900 X53.088 Y116.162 E412.03286
G0 F9000 X52.523 Y116.162
G1 F900 X85.619 Y149.258 E417.64944
G0 F9000 X85.053 Y149.258
G1 F900 X51.958 Y116.163 E423.26585
G0 F9000 X51.393 Y116.164
G1 F900 X84.487 Y149.258 E428.88208
G0 F9000 X83.922 Y149.258
G1 F900 X50.828 Y116.164 E434.49832
G0 F9000 X50.263 Y116.165
G1 F900 X83.356 Y149.258 E440.11439
G0 F9000 X81.659 Y149.258
G1 F900 X66.168 Y133.768 E442.74322
G0 F9000 X66.168 Y134.334
G1 F900 X81.093 Y149.258 E445.27599
G0 F9000 X80.528 Y149.258
G1 F900 X66.168 Y134.899 E447.71288
G0 F9000 X66.168 Y135.465
G1 F900 X79.962 Y149.258 E450.05371
G0 F9000 X79.396 Y149.258
G1 F900 X66.168 Y136.031 E452.29849
G0 F9000 X66.168 Y136.596
G1 F900 X78.831 Y149.258 E454.44739
G0 F9000 X78.265 Y149.258
G1 F900 X66.168 Y137.162 E456.50023
G0 F9000 X66.168 Y137.728
G1 F900 X77.699 Y149.258 E458.45702
G0 F9000 X77.134 Y149.258
G1 F900 X66.168 Y138.293 E460.31793
G0 F9000 X66.168 Y138.859
G1 F900 X76.568 Y149.258 E462.08278
G0 F9000 X76.002 Y149.258
G1 F900 X66.168 Y139.425 E463.75158
G0 F9000 X66.168 Y139.990
G1 F900 X75.436 Y149.258 E465.32442
G0 F9000 X74.871 Y149.258
G1 F900 X66.168 Y140.556 E466.80128
G0 F9000 X66.168 Y141.122
G1 F900 X74.305 Y149.258 E468.18209
G0 F9000 X73.739 Y149.258
G1 F900 X66.168 Y141.687 E469.46693
G0 F9000 X66.168 Y142.253
G1 F900 X73.174 Y149.258 E470.65580
G0 F9000 X72.608 Y149.258
G1 F900 X66.089 Y142.739 E471.76211
G0 F9000 X65.523 Y142.739
G1 F900 X72.042 Y149.258 E472.86843
G0 F9000 X71.477 Y149.258
G1 F900 X64.957 Y142.739 E473.97482
G0 F9000 X64.391 Y142.739
G1 F900 X70.911 Y149.258 E475.08122
G0 F9000 X70.345 Y149.258
G1 F900 X63.826 Y142.739 E476.18753
G0 F9000 X63.260 Y142.739
G1 F900 X69.780 Y149.258 E477.29392
G0 F9000 X69.214 Y149.258
G1 F900 X62.694 Y142.739 E478.40032
G0 F9000 X62.129 Y142.739
G1 F900 X68.648 Y149.258 E479.50663
G0 F9000 X68.083 Y149.258
G1 F900 X64.640 Y145.816 E480.09084
G0 F9000 X64.640 Y146.382
G1 F900 X67.517 Y149.258 E480.57900
G0 F9000 X66.951 Y149.258
G1 F900 X64.640 Y146.948 E480.97111
G0 F9000 X64.640 Y147.513
G1 F900 X66.386 Y149.258 E481.26733
G0 F9000 X65.820 Y149.258
G1 F900 X64.640 Y148.079 E481.46749
G0 F9000 X64.640 Y148.645
G1 F900 X65.254 Y149.258 E481.57161
G0 F9000 X64.442 Y145.554
G0 X64.178 Y145.354
G1 F900 X61.563 Y142.739 E482.01539
G0 F9000 X60.997 Y142.739
G1 F900 X63.612 Y145.354 E482.45917
G0 F9000 X63.047 Y145.354
G1 F900 X60.432 Y142.739 E482.90295
G0 F9000 X59.866 Y142.739
G1 F900 X62.481 Y145.354 E483.34673
G0 F9000 X61.915 Y145.354
G1 F900 X59.300 Y142.739 E483.79051
G0 F9000 X58.735 Y142.739
G1 F900 X61.349 Y145.354 E484.23421
G0 F9000 X60.784 Y145.354
G1 F900 X58.169 Y142.739 E484.67799
G0 F9000 X57.603 Y142.739
G1 F900 X60.218 Y145.354 E485.12177
G0 F9000 X58.427 Y145.554
G0 X58.244 Y149.036
G1 F900 X49.697 Y140.490 E486.57215
G0 F9000 X49.697 Y141.055
G1 F900 X57.900 Y149.258 E487.96425
G0 F9000 X57.335 Y149.258
G1 F900 X49.697 Y141.621 E489.26038
G0 F9000 X49.697 Y142.187
G1 F900 X56.769 Y149.258 E490.46045
G0 F9000 X56.203 Y149.258
G1 F900 X49.697 Y142.752 E491.56456
G0 F9000 X49.697 Y143.318
G1 F900 X55.637 Y149.258 E492.57261
G0 F9000 X55.072 Y149.258
G1 F900 X49.697 Y143.884 E493.48469
G0 F9000 X49.697 Y144.449
G1 F900 X54.506 Y149.258 E494.30080
G0 F9000 X53.940 Y149.258
G1 F900 X49.697 Y145.015 E495.02086
G0 F9000 X49.697 Y145.581
G1 F900 X53.375 Y149.258 E495.64496
G0 F9000 X52.809 Y149.258
G1 F900 X49.697 Y146.146 E496.17308
G0 F9000 X49.697 Y146.712
G1 F900 X52.243 Y149.258 E496.60515
G0 F9000 X51.678 Y149.258
G1 F900 X49.697 Y147.278 E496.94125
G0 F9000 X49.697 Y147.844
G1 F900 X51.112 Y149.258 E497.18130
G0 F9000 X50.546 Y149.258
G1 F900 X49.697 Y148.409 E497.32538
G0 F9000 X49.697 Y148.975
G1 F900 X49.981 Y149.258 E497.37349
G0 F9000 X96.367 Y149.258
G1 F900 X49.697 Y102.589 E505.29357
G0 F9000 X49.697 Y102.023
G1 F900 X96.933 Y149.258 E513.30970
G0 F9000 X97.498 Y149.258
G1 F900 X49.697 Y101.457 E521.42180
G0 F9000 X49.697 Y100.892
