;FLAVOR:UltiGCode
;TIME:29745
;MATERIAL:24801
;MATERIAL2:0
;NOZZLE_DIAMETER:0.000000
;NOZZLE_DIAMETER2:0.000000

;Layer count: 68
;LAYER:0
M107
G0 F9000 X40.076 Y21.775 Z0.300
;TYPE:SKIRT
G1 F1200 X42.703 Y19.055 E0.45378
G1 X45.769 Y18.191 E0.83603
G1 X47.202 Y18.150 E1.00806
G1 X47.625 Y18.151 E1.05882
G1 X47.861 Y18.150 E1.08714
G1 X48.112 Y18.151 E1.11726
G1 X48.639 Y18.150 E1.18050
G1 X48.876 Y18.151 E1.20894
G1 X49.125 Y18.150 E1.23882
G1 X49.531 Y18.151 E1.28754
G1 X49.761 Y18.150 E1.31514
G1 X49.992 Y18.151 E1.34286
G1 X50.540 Y18.150 E1.40862
G1 X50.836 Y18.151 E1.44414
G1 X51.310 Y18.150 E1.50102
G1 X52.380 Y18.151 E1.62942
G1 X53.099 Y18.150 E1.71570
G1 X54.129 Y18.151 E1.83930
G1 X55.282 Y18.150 E1.97766
G1 X57.095 Y18.150 E2.19522
G1 X58.703 Y18.151 E2.38818
G1 X61.373 Y18.150 E2.70858
G1 X63.752 Y18.151 E2.99406
G1 X67.078 Y18.151 E3.39318
G1 X70.829 Y18.150 E3.84330
G1 X74.656 Y18.151 E4.30254
G1 X78.962 Y18.150 E4.81926
G1 X83.312 Y18.150 E5.34126
G1 X87.177 Y18.151 E5.80506
G1 X91.049 Y18.150 E6.26970
G1 X94.493 Y18.151 E6.68298
G1 X97.048 Y18.151 E6.98958
G1 X99.931 Y18.150 E7.33554
G1 X102.051 Y18.151 E7.58994
G1 X104.432 Y18.150 E7.87566
G1 X106.819 Y18.150 E8.16210
G1 X108.937 Y18.151 E8.41626
G1 X111.815 Y18.150 E8.76162
G1 X114.378 Y18.151 E9.06918
G1 X117.815 Y18.151 E9.48162
G1 X121.690 Y18.150 E9.94662
G1 X125.554 Y18.151 E10.41030
G1 X129.902 Y18.150 E10.93206
G1 X134.209 Y18.150 E11.44890
G1 X138.036 Y18.151 E11.90814
G1 X141.782 Y18.150 E12.35766
G1 X145.115 Y18.151 E12.75762
G1 X147.483 Y18.151 E13.04178
G1 X150.157 Y18.150 E13.36266
G1 X151.758 Y18.151 E13.55478
G1 X153.557 Y18.150 E13.77066
G1 X154.703 Y18.150 E13.90818
G1 X155.710 Y18.151 E14.02902
G1 X156.401 Y18.150 E14.11194
G1 X157.016 Y18.151 E14.18574
G1 X157.859 Y18.150 E14.28690
G1 X158.093 Y18.151 E14.31498
G1 X158.500 Y18.150 E14.36382
G1 X158.615 Y18.151 E14.37762
G1 X158.668 Y18.150 E14.38398
G1 X158.817 Y18.151 E14.40186
G1 X158.928 Y18.150 E14.41518
G1 X159.083 Y18.151 E14.43378
G1 X159.368 Y18.150 E14.46798
G1 X159.538 Y18.151 E14.48838
G1 X159.787 Y18.150 E14.51826
G1 X160.376 Y18.151 E14.58894
G1 X160.772 Y18.150 E14.63646
G1 X161.180 Y18.151 E14.68542
G1 X162.072 Y18.150 E14.79246
G1 X162.467 Y18.151 E14.83986
G1 X162.861 Y18.150 E14.88714
G1 X163.462 Y18.151 E14.95926
G1 X163.853 Y18.150 E15.00619
G1 X164.778 Y18.175 E15.11723
G1 X166.498 Y18.415 E15.32563
G1 X169.198 Y19.593 E15.67912
G1 X171.718 Y22.450 E16.13627
G1 X172.394 Y25.315 E16.48951
G1 X172.431 Y26.779 E16.66525
G1 X172.430 Y27.418 E16.74193
G1 X172.431 Y27.756 E16.78249
G1 X172.430 Y28.138 E16.82833
G1 X172.431 Y28.931 E16.92349
G1 X172.430 Y29.307 E16.96861
G1 X172.431 Y29.633 E17.00773
G1 X172.430 Y30.183 E17.07373
G1 X172.431 Y30.424 E17.10265
G1 X172.430 Y30.615 E17.12557
G1 X172.431 Y30.873 E17.15653
G1 X172.431 Y31.029 E17.17525
G1 X172.430 Y31.194 E17.19505
G1 X172.431 Y31.310 E17.20897
G1 X172.430 Y31.521 E17.23429
G1 X172.431 Y31.922 E17.28241
G1 X172.430 Y32.200 E17.31577
G1 X172.431 Y32.628 E17.36713
G1 X172.430 Y33.679 E17.49325
G1 X172.431 Y34.372 E17.57641
G1 X172.430 Y35.239 E17.68045
G1 X172.431 Y36.192 E17.79481
G1 X172.431 Y37.452 E17.94601
G1 X172.430 Y38.568 E18.07993
G1 X172.431 Y40.124 E18.26665
G1 X172.430 Y41.521 E18.43429
G1 X172.430 Y43.204 E18.63625
G1 X172.431 Y45.105 E18.86437
G1 X172.430 Y46.978 E19.08913
G1 X172.431 Y49.076 E19.34089
G1 X172.431 Y51.252 E19.60201
G1 X172.430 Y53.185 E19.83397
G1 X172.431 Y55.288 E20.08633
G1 X172.430 Y57.166 E20.31169
G1 X172.430 Y58.858 E20.51473
G1 X172.431 Y60.767 E20.74381
G1 X172.430 Y62.381 E20.93749
G1 X172.431 Y64.184 E21.15385
G1 X172.431 Y65.997 E21.37141
G1 X172.430 Y67.609 E21.56485
G1 X172.431 Y69.513 E21.79333
G1 X172.430 Y71.215 E21.99757
G1 X172.430 Y73.083 E22.22173
G1 X172.431 Y75.191 E22.47469
G1 X172.430 Y77.122 E22.70641
G1 X172.431 Y79.284 E22.96585
G1 X172.431 Y81.378 E23.21713
G1 X172.430 Y83.238 E23.44033
G1 X172.431 Y85.108 E23.66473
G1 X172.430 Y86.780 E23.86537
G1 X172.430 Y88.126 E24.02689
G1 X172.431 Y89.648 E24.20953
G1 X172.430 Y90.725 E24.33877
G1 X172.431 Y91.920 E24.48217
G1 X172.431 Y92.855 E24.59437
G1 X172.430 Y93.683 E24.69373
G1 X172.431 Y94.360 E24.77497
G1 X172.430 Y94.983 E24.84973
G1 X172.431 Y95.893 E24.95893
G1 X172.430 Y96.202 E24.99601
G1 X172.431 Y96.733 E25.05973
G1 X172.430 Y96.954 E25.08625
G1 X172.431 Y97.056 E25.09849
G1 X172.430 Y97.351 E25.13389
G1 X172.431 Y97.454 E25.14625
G1 X172.430 Y97.643 E25.16893
G1 X172.431 Y97.932 E25.20361
G1 X172.430 Y98.138 E25.22833
G1 X172.431 Y98.351 E25.25389
G1 X172.430 Y98.948 E25.32553
G1 X172.431 Y99.311 E25.36909
G1 X172.430 Y99.715 E25.41757
G1 X172.431 Y100.563 E25.51933
G1 X172.430 Y100.961 E25.56709
G1 X172.431 Y101.311 E25.60909
G1 X172.430 Y101.899 E25.67965
G1 X172.432 Y102.300 E25.72778
G1 X172.381 Y103.498 E25.87167
G1 X171.826 Y106.001 E26.17932
G1 X169.650 Y108.912 E26.61545
G1 X166.764 Y110.377 E27.00383
G1 X164.782 Y110.671 E27.24428
G1 X163.545 Y110.694 E27.39274
G1 X162.881 Y110.693 E27.47242
G1 X162.477 Y110.694 E27.52090
G1 X162.067 Y110.693 E27.57010
G1 X161.177 Y110.694 E27.67690
G1 X160.785 Y110.693 E27.72394
G1 X160.401 Y110.694 E27.77002
G1 X159.827 Y110.693 E27.83890
G1 X159.530 Y110.694 E27.87454
G1 X159.354 Y110.693 E27.89566
G1 X159.044 Y110.694 E27.93286
G1 X158.965 Y110.693 E27.94234
G1 X158.885 Y110.694 E27.95195
G1 X158.708 Y110.693 E27.97319
G1 X158.644 Y110.694 E27.98087
G1 X158.468 Y110.693 E28.00199
G1 X158.097 Y110.694 E28.04651
G1 X157.857 Y110.693 E28.07531
G1 X157.434 Y110.694 E28.12607
G1 X156.425 Y110.693 E28.24715
G1 X155.734 Y110.694 E28.33007
G1 X154.715 Y110.693 E28.45235
G1 X153.576 Y110.694 E28.58903
G1 X151.767 Y110.694 E28.80611
G1 X150.163 Y110.693 E28.99859
G1 X147.494 Y110.694 E29.31887
G1 X145.115 Y110.693 E29.60435
G1 X141.789 Y110.693 E30.00347
G1 X138.038 Y110.694 E30.45359
G1 X134.210 Y110.693 E30.91295
G1 X129.904 Y110.694 E31.42967
G1 X125.554 Y110.694 E31.95167
G1 X121.690 Y110.693 E32.41535
G1 X117.818 Y110.694 E32.87999
G1 X114.373 Y110.693 E33.29339
G1 X111.819 Y110.693 E33.59987
G1 X108.936 Y110.694 E33.94583
G1 X106.817 Y110.693 E34.20011
G1 X104.436 Y110.694 E34.48583
G1 X102.049 Y110.694 E34.77227
G1 X99.930 Y110.693 E35.02655
G1 X97.051 Y110.694 E35.37203
G1 X94.488 Y110.693 E35.67959
G1 X87.176 Y110.693 E36.55703
G1 X83.312 Y110.692 E37.02071
G1 X78.964 Y110.693 E37.54247
G1 X74.656 Y110.693 E38.05943
G1 X70.829 Y110.692 E38.51867
G1 X67.081 Y110.693 E38.96843
G1 X63.747 Y110.692 E39.36851
G1 X61.377 Y110.692 E39.65291
G1 X58.700 Y110.693 E39.97415
G1 X57.093 Y110.692 E40.16699
G1 X55.287 Y110.693 E40.38371
G1 X54.125 Y110.693 E40.52315
G1 X53.104 Y110.692 E40.64567
G1 X52.384 Y110.693 E40.73207
G1 X51.744 Y110.692 E40.80887
G1 X50.817 Y110.693 E40.92011
G1 X50.522 Y110.692 E40.95551
G1 X50.140 Y110.693 E41.00135
G1 X50.140 Y110.751 E41.00831
G1 X191.669 Y110.751 E57.99179
G1 X191.679 Y119.426 E59.03279
G1 X191.678 Y127.396 E59.98919
G1 X191.679 Y128.112 E60.07511
G1 X191.678 Y134.661 E60.86099
G1 X191.679 Y139.157 E61.40051
G1 X191.678 Y179.873 E66.28643
G1 X191.679 Y180.599 E66.37355
G1 X191.678 Y187.224 E67.16855
G1 X191.679 Y188.047 E67.26731
G1 X191.677 Y203.351 E69.10379
G1 X50.141 Y203.351 E86.08811
G1 X50.141 Y203.924 E86.15687
G1 X27.654 Y203.924 E88.85531
G1 X27.654 Y110.124 E100.11131
G1 X43.999 Y110.124 E102.07271
G1 X42.443 Y109.624 E102.26883
G1 X39.938 Y106.817 E102.72030
G1 X39.009 Y104.156 E103.05852
G1 X38.933 Y102.328 E103.27807
G1 X38.931 Y101.893 E103.33027
G1 X38.932 Y101.302 E103.40119
G1 X38.931 Y100.940 E103.44463
G1 X38.932 Y100.537 E103.49299
G1 X38.931 Y99.689 E103.59475
G1 X38.932 Y99.291 E103.64251
G1 X38.931 Y98.938 E103.68487
G1 X38.932 Y98.346 E103.75591
G1 X38.930 Y97.932 E103.80559
G1 X39.009 Y96.171 E104.01712
G1 X39.808 Y93.661 E104.33322
G1 X42.246 Y90.668 E104.79645
G1 X45.636 Y89.559 E105.22447
G1 X47.537 Y89.519 E105.45264
G1 X48.320 Y89.515 E105.54660
G1 X48.839 Y89.513 E105.60888
G1 X50.178 Y89.507 E105.76956
G1 X50.535 Y89.506 E105.81240
G1 X50.820 Y89.507 E105.84660
G1 X51.302 Y89.505 E105.90444
G1 X52.380 Y89.506 E106.03380
G1 X53.099 Y89.505 E106.12008
G1 X54.129 Y89.506 E106.24368
G1 X55.282 Y89.505 E106.38204
G1 X57.098 Y89.505 E106.59996
G1 X58.711 Y89.507 E106.79352
G1 X61.376 Y89.507 E107.11332
G1 X63.756 Y89.509 E107.39892
G1 X70.833 Y89.511 E108.24816
G1 X74.662 Y89.514 E108.70764
G1 X78.967 Y89.515 E109.22424
G1 X87.182 Y89.521 E110.21004
G1 X91.056 Y89.523 E110.67492
G1 X94.501 Y89.527 E111.08832
G1 X99.941 Y89.531 E111.74112
G1 X102.065 Y89.535 E111.99600
G1 X104.442 Y89.537 E112.28124
G1 X106.827 Y89.540 E112.56744
G1 X108.947 Y89.543 E112.82184
G1 X111.824 Y89.545 E113.16708
G1 X114.387 Y89.549 E113.47464
G1 X121.695 Y89.553 E114.35160
G1 X125.561 Y89.556 E114.81552
G1 X134.216 Y89.560 E115.85412
G1 X138.046 Y89.564 E116.31372
G1 X141.789 Y89.565 E116.76288
G1 X145.123 Y89.567 E117.16296
G1 X147.496 Y89.568 E117.44772
G1 X150.171 Y89.568 E117.76872
G1 X150.988 Y89.569 E117.86677
G1 X150.987 Y88.167 E118.03501
G1 X150.988 Y86.807 E118.19821
G1 X150.988 Y85.146 E118.39753
G1 X150.987 Y83.269 E118.62277
G1 X150.988 Y81.405 E118.84645
G1 X150.987 Y79.319 E119.09677
G1 X150.987 Y77.145 E119.35765
G1 X150.988 Y75.214 E119.58937
G1 X150.987 Y73.110 E119.84185
G1 X150.988 Y71.230 E120.06745
G1 X150.988 Y69.536 E120.27073
G1 X150.987 Y67.625 E120.50005
G1 X150.988 Y66.011 E120.69373
G1 X150.987 Y64.206 E120.91033
G1 X150.987 Y62.391 E121.12813
G1 X150.988 Y60.777 E121.32181
G1 X150.987 Y58.872 E121.55041
G1 X150.988 Y57.168 E121.75489
G1 X150.988 Y55.299 E121.97917
G1 X150.987 Y53.189 E122.23237
G1 X150.988 Y51.253 E122.46469
G1 X150.987 Y49.085 E122.72485
G1 X150.987 Y46.977 E122.97781
G1 X150.988 Y45.103 E123.20269
G1 X150.987 Y43.206 E123.43033
G1 X150.988 Y41.511 E123.63373
G1 X150.988 Y40.126 E123.79993
G1 X150.987 Y38.883 E123.94909
G1 X150.161 Y38.882 E124.04821
G1 X147.493 Y38.883 E124.36837
G1 X145.114 Y38.882 E124.65385
G1 X141.788 Y38.882 E125.05297
G1 X138.038 Y38.883 E125.50297
G1 X134.210 Y38.882 E125.96233
G1 X129.904 Y38.883 E126.47905
G1 X125.554 Y38.883 E127.00105
G1 X121.690 Y38.882 E127.46473
G1 X117.818 Y38.883 E127.92937
G1 X114.373 Y38.882 E128.34277
G1 X111.819 Y38.882 E128.64925
G1 X108.936 Y38.883 E128.99521
G1 X106.817 Y38.882 E129.24949
G1 X104.436 Y38.883 E129.53521
G1 X102.049 Y38.883 E129.82165
G1 X99.931 Y38.882 E130.07581
G1 X97.052 Y38.883 E130.42129
G1 X94.489 Y38.882 E130.72885
G1 X91.052 Y38.882 E131.14129
G1 X87.177 Y38.883 E131.60629
G1 X83.312 Y38.882 E132.07009
G1 X78.964 Y38.883 E132.59185
G1 X74.656 Y38.883 E133.10881
G1 X70.829 Y38.882 E133.56805
G1 X67.081 Y38.883 E134.01781
G1 X63.747 Y38.882 E134.41789
G1 X61.377 Y38.882 E134.70229
G1 X58.700 Y38.883 E135.02353
G1 X57.093 Y38.882 E135.21637
G1 X55.287 Y38.883 E135.43309
G1 X54.125 Y38.883 E135.57253
G1 X53.104 Y38.882 E135.69505
G1 X52.384 Y38.883 E135.78145
G1 X51.744 Y38.882 E135.85825
G1 X50.817 Y38.883 E135.96949
G1 X50.522 Y38.882 E136.00489
G1 X49.959 Y38.883 E136.07245
G1 X49.761 Y38.882 E136.09621
G1 X49.558 Y38.883 E136.12057
G1 X49.143 Y38.882 E136.17037
G1 X48.873 Y38.883 E136.20277
G1 X48.614 Y38.882 E136.23385
G1 X48.086 Y38.883 E136.29721
G1 X47.863 Y38.882 E136.32397
G1 X47.646 Y38.883 E136.35001
G1 X47.329 Y38.882 E136.38805
G1 X46.968 Y38.884 E136.43137
G1 X45.670 Y38.816 E136.58734
G1 X42.801 Y38.000 E136.94528
G1 X40.162 Y35.407 E137.38924
G1 X39.002 Y32.522 E137.76238
G1 X38.931 Y30.286 E138.03084
G1 X38.932 Y29.623 E138.11040
G1 X38.931 Y29.285 E138.15096
G1 X38.932 Y28.904 E138.19668
G1 X38.931 Y28.110 E138.29196
G1 X38.932 Y27.734 E138.33708
G1 X38.931 Y27.408 E138.37620
G1 X38.932 Y26.857 E138.44232
G1 X38.930 Y26.446 E138.49164
G1 X39.027 Y24.515 E138.72365
G1 X40.076 Y21.775 E139.07572
G0 F9000 X40.420 Y21.994
G1 F1200 X42.916 Y19.411 E139.50675
G1 X45.830 Y18.590 E139.87005
G1 X47.207 Y18.550 E140.03536
G1 X47.626 Y18.551 E140.08564
G1 X47.861 Y18.550 E140.11384
G1 X48.111 Y18.551 E140.14384
G1 X48.638 Y18.550 E140.20708
G1 X48.875 Y18.551 E140.23552
G1 X49.125 Y18.550 E140.26552
G1 X49.532 Y18.551 E140.31436
G1 X49.761 Y18.550 E140.34184
G1 X49.991 Y18.551 E140.36944
G1 X50.540 Y18.550 E140.43532
G1 X50.836 Y18.551 E140.47084
G1 X51.310 Y18.550 E140.52772
G1 X52.381 Y18.551 E140.65624
G1 X53.099 Y18.550 E140.74240
G1 X54.129 Y18.551 E140.86600
G1 X55.282 Y18.550 E141.00436
G1 X57.095 Y18.550 E141.22192
G1 X58.703 Y18.551 E141.41488
G1 X61.373 Y18.550 E141.73528
G1 X63.752 Y18.551 E142.02076
G1 X67.078 Y18.551 E142.41988
G1 X70.829 Y18.550 E142.87000
G1 X74.656 Y18.551 E143.32924
G1 X78.962 Y18.550 E143.84596
G1 X83.312 Y18.550 E144.36796
G1 X87.177 Y18.551 E144.83176
G1 X91.049 Y18.550 E145.29640
G1 X94.493 Y18.551 E145.70968
G1 X97.048 Y18.551 E146.01628
G1 X99.931 Y18.550 E146.36224
G1 X102.050 Y18.551 E146.61652
G1 X104.432 Y18.550 E146.90236
G1 X106.819 Y18.550 E147.18880
G1 X108.936 Y18.551 E147.44284
G1 X111.815 Y18.550 E147.78832
G1 X114.378 Y18.551 E148.09588
G1 X117.815 Y18.551 E148.50832
G1 X121.690 Y18.550 E148.97332
G1 X125.554 Y18.551 E149.43700
G1 X129.902 Y18.550 E149.95876
G1 X134.209 Y18.550 E150.47560
G1 X138.036 Y18.551 E150.93484
G1 X141.782 Y18.550 E151.38436
G1 X145.115 Y18.551 E151.78432
G1 X147.483 Y18.551 E152.06848
G1 X150.157 Y18.550 E152.38936
G1 X151.758 Y18.551 E152.58148
G1 X153.557 Y18.550 E152.79736
G1 X154.703 Y18.550 E152.93488
G1 X155.709 Y18.551 E153.05560
G1 X156.401 Y18.550 E153.13864
G1 X157.015 Y18.551 E153.21232
G1 X157.859 Y18.550 E153.31360
G1 X158.092 Y18.551 E153.34156
G1 X158.499 Y18.550 E153.39040
G1 X158.615 Y18.551 E153.40432
G1 X158.669 Y18.550 E153.41080
G1 X158.818 Y18.551 E153.42868
G1 X158.929 Y18.550 E153.44200
G1 X159.082 Y18.551 E153.46036
G1 X159.367 Y18.550 E153.49456
G1 X159.538 Y18.551 E153.51508
G1 X159.788 Y18.550 E153.54508
G1 X160.377 Y18.551 E153.61576
G1 X160.772 Y18.550 E153.66317
G1 X161.180 Y18.551 E153.71213
G1 X162.072 Y18.550 E153.81917
G1 X162.466 Y18.551 E153.86645
G1 X162.861 Y18.550 E153.91385
G1 X163.462 Y18.551 E153.98597
G1 X163.848 Y18.550 E154.03229
G1 X164.745 Y18.574 E154.13996
G1 X166.388 Y18.804 E154.33905
G1 X168.957 Y19.924 E154.67535
G1 X171.352 Y22.639 E155.10980
G1 X171.995 Y25.367 E155.44613
G1 X172.031 Y26.784 E155.61622
G1 X172.030 Y27.417 E155.69218
G1 X172.031 Y27.756 E155.73286
G1 X172.030 Y28.137 E155.77858
G1 X172.031 Y28.931 E155.87386
G1 X172.030 Y29.306 E155.91886
G1 X172.031 Y29.633 E155.95810
G1 X172.030 Y30.182 E156.02398
G1 X172.031 Y30.424 E156.05302
G1 X172.030 Y30.613 E156.07570
G1 X172.031 Y30.871 E156.10666
G1 X172.030 Y30.950 E156.11615
G1 X172.031 Y31.030 E156.12575
G1 X172.030 Y31.148 E156.13991
G1 X172.031 Y31.311 E156.15947
G1 X172.030 Y31.518 E156.18431
G1 X172.031 Y31.921 E156.23267
G1 X172.030 Y32.198 E156.26591
G1 X172.031 Y32.629 E156.31763
G1 X172.030 Y33.678 E156.44351
G1 X172.031 Y34.372 E156.52679
G1 X172.030 Y35.239 E156.63083
G1 X172.031 Y36.192 E156.74519
G1 X172.031 Y37.451 E156.89627
G1 X172.030 Y38.568 E157.03031
G1 X172.031 Y40.124 E157.21703
G1 X172.030 Y41.520 E157.38455
G1 X172.030 Y43.204 E157.58663
G1 X172.031 Y45.105 E157.81475
G1 X172.030 Y46.978 E158.03951
G1 X172.031 Y49.076 E158.29127
G1 X172.031 Y51.252 E158.55239
G1 X172.030 Y53.185 E158.78435
G1 X172.031 Y55.288 E159.03671
G1 X172.030 Y57.166 E159.26207
G1 X172.030 Y58.858 E159.46511
G1 X172.031 Y60.767 E159.69419
G1 X172.030 Y62.381 E159.88787
G1 X172.031 Y64.184 E160.10423
G1 X172.031 Y65.997 E160.32179
G1 X172.030 Y67.609 E160.51523
G1 X172.031 Y69.513 E160.74371
G1 X172.030 Y71.214 E160.94783
G1 X172.030 Y73.083 E161.17211
G1 X172.031 Y75.191 E161.42507
G1 X172.030 Y77.122 E161.65679
G1 X172.031 Y79.284 E161.91623
G1 X172.031 Y81.378 E162.16751
G1 X172.030 Y83.238 E162.39071
G1 X172.031 Y85.108 E162.61511
G1 X172.030 Y86.779 E162.81563
G1 X172.030 Y88.126 E162.97727
G1 X172.031 Y89.648 E163.15991
G1 X172.030 Y90.725 E163.28915
G1 X172.031 Y91.920 E163.43255
G1 X172.031 Y92.854 E163.54463
G1 X172.030 Y93.683 E163.64411
