;FLAVOR:UltiGCode
;TIME:23309
;MATERIAL:17002
;MATERIAL2:0
;NOZZLE_DIAMETER:0.000000
;NOZZLE_DIAMETER2:0.000000

;Layer count: 40
;LAYER:0
M107
G0 F9000 X33.603 Y69.400 Z0.300
;TYPE:SKIRT
G1 F1200 X46.890 Y69.400 E1.59444
G1 X46.890 Y69.800 E1.64244
G1 X188.427 Y69.801 E18.62688
G1 X188.432 Y73.873 E19.11552
G1 X188.431 Y81.844 E20.07204
G1 X188.432 Y82.560 E20.15796
G1 X188.431 Y89.109 E20.94384
G1 X188.431 Y134.319 E26.36904
G1 X188.432 Y135.047 E26.45640
G1 X188.431 Y141.672 E27.25140
G1 X188.432 Y142.493 E27.34992
G1 X188.431 Y153.200 E28.63476
G1 X46.891 Y153.201 E45.61956
G1 X46.891 Y153.800 E45.69144
G1 X33.603 Y153.800 E47.28600
G1 X33.603 Y69.400 E57.41400
G10
G0 F9000 X44.290 Y73.600
;TYPE:WALL-INNER
G11
G1 F1200 X184.631 Y73.601 E74.25492
G1 X184.631 Y149.400 E83.35080
G1 X44.291 Y149.401 E100.19160
G1 X44.290 Y73.600 E109.28772
G0 F9000 X43.890 Y73.200
;TYPE:WALL-OUTER
G1 F1200 X185.031 Y73.201 E126.22464
G1 X185.031 Y149.800 E135.41652
G1 X43.891 Y149.801 E152.35332
G1 X43.890 Y73.200 E161.54544
G0 F9000 X44.607 Y73.739
;TYPE:SKIN
G1 F900 X120.126 Y149.259 E174.36152
G0 F9000 X120.692 Y149.259
G1 F900 X45.172 Y73.739 E187.17769
G0 F9000 X45.738 Y73.739
G1 F900 X121.258 Y149.259 E199.99386
G0 F9000 X121.823 Y149.259
G1 F900 X46.304 Y73.739 E212.80995
G0 F9000 X46.869 Y73.739
G1 F900 X122.389 Y149.259 E225.62612
G0 F9000 X122.955 Y149.259
G1 F900 X47.435 Y73.739 E238.44228
G0 F9000 X48.001 Y73.739
G1 F900 X123.520 Y149.259 E251.25837
G0 F9000 X124.086 Y149.259
G1 F900 X48.566 Y73.739 E264.07454
G0 F9000 X49.132 Y73.739
G1 F900 X124.652 Y149.259 E276.89071
G0 F9000 X125.218 Y149.259
G1 F900 X49.698 Y73.739 E289.70688
G0 F9000 X50.263 Y73.739
G1 F900 X125.783 Y149.259 E302.52304
G0 F9000 X126.349 Y149.259
G1 F900 X50.829 Y73.739 E315.33921
G0 F9000 X51.395 Y73.739
G1 F900 X126.915 Y149.259 E328.15538
G0 F9000 X127.480 Y149.259
G1 F900 X51.961 Y73.739 E340.97147
G0 F9000 X52.526 Y73.739
G1 F900 X128.046 Y149.259 E353.78764
G0 F9000 X128.612 Y149.259
G1 F900 X53.092 Y73.739 E366.60381
G0 F9000 X53.658 Y73.739
G1 F900 X129.177 Y149.259 E379.41989
G0 F9000 X129.743 Y149.259
G1 F900 X54.223 Y73.739 E392.23606
G0 F9000 X54.789 Y73.739
G1 F900 X130.309 Y149.259 E405.05223
G0 F9000 X130.874 Y149.259
G1 F900 X55.355 Y73.739 E417.86831
G0 F9000 X55.920 Y73.739
G1 F900 X131.440 Y149.259 E430.68448
G0 F9000 X132.006 Y149.259
G1 F900 X56.486 Y73.739 E443.50065
G0 F9000 X57.052 Y73.739
G1 F900 X132.571 Y149.259 E456.31673
G0 F9000 X133.137 Y149.259
G1 F900 X57.617 Y73.739 E469.13290
G0 F9000 X58.183 Y73.739
G1 F900 X133.703 Y149.259 E481.94907
G0 F9000 X134.268 Y149.259
G1 F900 X58.749 Y73.739 E494.76516
G0 F9000 X59.314 Y73.739
G1 F900 X134.834 Y149.259 E507.58132
G0 F9000 X135.400 Y149.259
G1 F900 X59.880 Y73.739 E520.39749
G0 F9000 X44.429 Y74.128
G1 F900 X119.561 Y149.259 E533.14773
G0 F9000 X118.995 Y149.259
G1 F900 X44.429 Y74.693 E545.80200
G0 F9000 X44.429 Y75.259
G1 F900 X118.429 Y149.259 E558.36022
G0 F9000 X117.864 Y149.259
G1 F900 X44.429 Y75.825 E570.82247
G0 F9000 X44.429 Y76.390
G1 F900 X117.298 Y149.259 E583.18875
G0 F9000 X116.732 Y149.259
G1 F900 X44.429 Y76.956 E595.45897
G0 F9000 X44.429 Y77.522
G1 F900 X116.167 Y149.259 E607.63323
G0 F9000 X115.601 Y149.259
G1 F900 X44.429 Y78.087 E619.71152
G0 F9000 X44.429 Y78.653
G1 F900 X115.035 Y149.259 E631.69375
G0 F9000 X114.469 Y149.259
G1 F900 X44.429 Y79.219 E643.57994
G0 F9000 X44.429 Y79.784
G1 F900 X113.904 Y149.259 E655.37023
G0 F9000 X113.338 Y149.259
G1 F900 X44.429 Y80.350 E667.06448
G0 F9000 X44.429 Y80.916
G1 F900 X112.772 Y149.259 E678.66267
G0 F9000 X112.207 Y149.259
G1 F900 X44.429 Y81.482 E690.16489
G0 F9000 X44.429 Y82.047
G1 F900 X111.641 Y149.259 E701.57115
G0 F9000 X111.075 Y149.259
G1 F900 X44.429 Y82.613 E712.88135
G0 F9000 X44.429 Y83.179
G1 F900 X110.510 Y149.259 E724.09558
G0 F9000 X109.944 Y149.259
G1 F900 X44.429 Y83.744 E735.21385
G0 F9000 X44.429 Y84.310
G1 F900 X109.378 Y149.259 E746.23606
G0 F9000 X108.813 Y149.259
G1 F900 X44.429 Y84.876 E757.16230
G0 F9000 X44.429 Y85.441
G1 F900 X108.247 Y149.259 E767.99257
G0 F9000 X107.681 Y149.259
G1 F900 X44.429 Y86.007 E778.72679
G0 F9000 X44.429 Y86.573
G1 F900 X107.116 Y149.259 E789.36505
G0 F9000 X106.550 Y149.259
G1 F900 X44.429 Y87.138 E799.90733
G0 F9000 X44.429 Y87.704
G1 F900 X105.984 Y149.259 E810.35356
G0 F9000 X105.419 Y149.259
G1 F900 X44.429 Y88.270 E820.70382
G0 F9000 X44.429 Y88.835
G1 F900 X104.853 Y149.259 E830.95811
G0 F9000 X104.287 Y149.259
G1 F900 X44.429 Y89.401 E841.11635
G0 F9000 X44.429 Y89.967
G1 F900 X103.721 Y149.259 E851.17854
G0 F9000 X103.156 Y149.259
G1 F900 X44.429 Y90.533 E861.14476
G0 F9000 X44.429 Y91.098
G1 F900 X102.590 Y149.259 E871.01501
G0 F9000 X102.024 Y149.259
G1 F900 X44.429 Y91.664 E880.78920
G0 F9000 X44.429 Y92.230
G1 F900 X101.459 Y149.259 E890.46743
G0 F9000 X100.893 Y149.259
G1 F900 X44.429 Y92.795 E900.04969
G0 F9000 X44.429 Y93.361
G1 F900 X100.327 Y149.259 E909.53589
G0 F9000 X99.762 Y149.259
G1 F900 X44.429 Y93.927 E918.92613
G0 F9000 X44.429 Y94.492
G1 F900 X99.196 Y149.259 E928.22040
G0 F9000 X98.630 Y149.259
G1 F900 X44.429 Y95.058 E937.41861
G0 F9000 X44.429 Y95.624
G1 F900 X98.065 Y149.259 E946.52086
G0 F9000 X97.499 Y149.259
G1 F900 X44.429 Y96.189 E955.52713
G0 F9000 X44.429 Y96.755
G1 F900 X96.933 Y149.259 E964.43736
G0 F9000 X96.368 Y149.259
G1 F900 X44.429 Y97.321 E973.25161
G0 F9000 X44.429 Y97.886
G1 F900 X95.802 Y149.259 E981.96990
G0 F9000 X95.236 Y149.259
G1 F900 X44.429 Y98.452 E990.59214
G0 F9000 X44.429 Y99.018
G1 F900 X94.670 Y149.259 E999.11832
G0 F9000 X94.105 Y149.259
G1 F900 X44.429 Y99.583 E1007.54861
G0 F9000 X44.429 Y100.149
G1 F900 X93.539 Y149.259 E1015.88286
G0 F9000 X92.973 Y149.259
G1 F900 X44.429 Y100.715 E1024.12105
G0 F9000 X44.429 Y101.281
G1 F900 X92.408 Y149.259 E1032.26327
G0 F9000 X91.842 Y149.259
G1 F900 X44.429 Y101.846 E1040.30952
G0 F9000 X44.429 Y102.412
G1 F900 X91.276 Y149.259 E1048.25972
G0 F9000 X90.711 Y149.259
G1 F900 X44.429 Y102.978 E1056.11395
G0 F9000 X44.429 Y103.543
G1 F900 X90.145 Y149.259 E1063.87221
G0 F9000 X89.579 Y149.259
G1 F900 X44.429 Y104.109 E1071.53442
G0 F9000 X44.429 Y104.675
G1 F900 X89.014 Y149.259 E1079.10066
G0 F9000 X88.448 Y149.259
G1 F900 X44.429 Y105.240 E1086.57094
G0 F9000 X44.429 Y105.806
G1 F900 X87.882 Y149.259 E1093.94515
G0 F9000 X87.317 Y149.259
G1 F900 X44.429 Y106.372 E1101.22340
G0 F9000 X44.429 Y106.937
G1 F900 X86.751 Y149.259 E1108.40569
G0 F9000 X86.185 Y149.259
G1 F900 X44.429 Y107.503 E1115.49191
G0 F9000 X44.429 Y108.069
G1 F900 X85.620 Y149.259 E1122.48217
G0 F9000 X85.054 Y149.259
G1 F900 X44.429 Y108.634 E1129.37646
G0 F9000 X44.429 Y109.200
G1 F900 X84.488 Y149.259 E1136.17470
G0 F9000 X83.922 Y149.259
G1 F900 X44.429 Y109.766 E1142.87689
G0 F9000 X44.429 Y110.331
G1 F900 X83.357 Y149.259 E1149.48319
G0 F9000 X82.791 Y149.259
G1 F900 X44.429 Y110.897 E1155.99343
G0 F9000 X44.429 Y111.463
G1 F900 X82.225 Y149.259 E1162.40763
G0 F9000 X81.660 Y149.259
G1 F900 X44.429 Y112.029 E1168.72585
G0 F9000 X44.429 Y112.594
G1 F900 X81.094 Y149.259 E1174.94811
G0 F9000 X80.528 Y149.259
G1 F900 X44.429 Y113.160 E1181.07431
G0 F9000 X44.429 Y113.726
G1 F900 X79.963 Y149.259 E1187.10455
G0 F9000 X79.397 Y149.259
G1 F900 X44.429 Y114.291 E1193.03882
G0 F9000 X44.429 Y114.857
G1 F900 X78.831 Y149.259 E1198.87703
G0 F9000 X78.266 Y149.259
G1 F900 X44.429 Y115.423 E1204.61927
G0 F9000 X44.429 Y115.988
G1 F900 X77.700 Y149.259 E1210.26555
G0 F9000 X77.134 Y149.259
G1 F900 X44.429 Y116.554 E1215.81577
G0 F9000 X44.429 Y117.120
G1 F900 X76.569 Y149.259 E1221.27003
G0 F9000 X76.003 Y149.259
G1 F900 X44.429 Y117.685 E1226.62831
G0 F9000 X44.429 Y118.251
G1 F900 X75.437 Y149.259 E1231.89054
G0 F9000 X74.872 Y149.259
G1 F900 X44.429 Y118.817 E1237.05681
G0 F9000 X44.429 Y119.382
G1 F900 X74.306 Y149.259 E1242.12710
G0 F9000 X73.740 Y149.259
G1 F900 X44.429 Y119.948 E1247.10134
G0 F9000 X44.429 Y120.514
G1 F900 X73.174 Y149.259 E1251.97953
G0 F9000 X72.609 Y149.259
G1 F900 X44.429 Y121.080 E1256.76175
G0 F9000 X44.429 Y121.645
G1 F900 X72.043 Y149.259 E1261.44800
G0 F9000 X71.477 Y149.259
G1 F900 X44.429 Y122.211 E1266.03820
G0 F9000 X44.429 Y122.777
G1 F900 X70.912 Y149.259 E1270.53243
G0 F9000 X70.346 Y149.259
G1 F900 X44.429 Y123.342 E1274.93069
G0 F9000 X44.429 Y123.908
G1 F900 X69.780 Y149.259 E1279.23290
G0 F9000 X69.215 Y149.259
G1 F900 X44.429 Y124.474 E1283.43914
G0 F9000 X44.429 Y125.039
G1 F900 X68.649 Y149.259 E1287.54941
G0 F9000 X68.083 Y149.259
G1 F900 X44.429 Y125.605 E1291.56362
G0 F9000 X44.429 Y126.171
G1 F900 X67.518 Y149.259 E1295.48187
G0 F9000 X66.952 Y149.259
G1 F900 X44.429 Y126.736 E1299.30415
G0 F9000 X44.429 Y127.302
G1 F900 X66.386 Y149.259 E1303.03038
G0 F9000 X65.821 Y149.259
G1 F900 X44.429 Y127.868 E1306.66064
G0 F9000 X44.429 Y128.433
G1 F900 X65.255 Y149.259 E1310.19493
G0 F9000 X64.689 Y149.259
G1 F900 X44.429 Y128.999 E1313.63316
G0 F9000 X44.429 Y129.565
G1 F900 X64.123 Y149.259 E1316.97534
G0 F9000 X63.558 Y149.259
G1 F900 X44.429 Y130.130 E1320.22164
G0 F9000 X44.429 Y130.696
G1 F900 X62.992 Y149.259 E1323.37189
G0 F9000 X62.426 Y149.259
G1 F900 X44.429 Y131.262 E1326.42608
G0 F9000 X44.429 Y131.828
G1 F900 X61.861 Y149.259 E1329.38430
G0 F9000 X61.295 Y149.259
G1 F900 X44.429 Y132.393 E1332.24656
G0 F9000 X44.429 Y132.959
G1 F900 X60.729 Y149.259 E1335.01276
G0 F9000 X60.164 Y149.259
G1 F900 X44.429 Y133.525 E1337.68299
G0 F9000 X44.429 Y134.090
G1 F900 X59.598 Y149.259 E1340.25726
G0 F9000 X59.032 Y149.259
G1 F900 X44.429 Y134.656 E1342.73547
G0 F9000 X44.429 Y135.222
G1 F900 X58.467 Y149.259 E1345.11771
G0 F9000 X57.901 Y149.259
G1 F900 X44.429 Y135.787 E1347.40399
G0 F9000 X44.429 Y136.353
G1 F900 X57.335 Y149.259 E1349.59421
G0 F9000 X56.770 Y149.259
G1 F900 X44.429 Y136.919 E1351.68846
G0 F9000 X44.429 Y137.484
G1 F900 X56.204 Y149.259 E1353.68674
G0 F9000 X55.638 Y149.259
G1 F900 X44.429 Y138.050 E1355.58897
G0 F9000 X44.429 Y138.616
G1 F900 X55.073 Y149.259 E1357.39524
G0 F9000 X54.507 Y149.259
G1 F900 X44.429 Y139.181 E1359.10553
G0 F9000 X44.429 Y139.747
G1 F900 X53.941 Y149.259 E1360.71977
G0 F9000 X53.375 Y149.259
G1 F900 X44.429 Y140.313 E1362.23796
G0 F9000 X44.429 Y140.879
G1 F900 X52.810 Y149.259 E1363.66017
G0 F9000 X52.244 Y149.259
G1 F900 X44.429 Y141.444 E1364.98642
G0 F9000 X44.429 Y142.010
G1 F900 X51.678 Y149.259 E1366.21662
G0 F9000 X51.113 Y149.259
G1 F900 X44.429 Y142.576 E1367.35085
G0 F9000 X44.429 Y143.141
G1 F900 X50.547 Y149.259 E1368.38911
G0 F9000 X49.981 Y149.259
G1 F900 X44.429 Y143.707 E1369.33131
G0 F9000 X44.429 Y144.273
G1 F900 X49.416 Y149.259 E1370.17755
G0 F9000 X48.850 Y149.259
G1 F900 X44.429 Y144.838 E1370.92782
G0 F9000 X44.429 Y145.404
G1 F900 X48.284 Y149.259 E1371.58203
G0 F9000 X47.719 Y149.259
G1 F900 X44.429 Y145.970 E1372.14028
G0 F9000 X44.429 Y146.535
G1 F900 X47.153 Y149.259 E1372.60256
G0 F9000 X46.587 Y149.259
G1 F900 X44.429 Y147.101 E1372.96878
G0 F9000 X44.429 Y147.667
G1 F900 X46.022 Y149.259 E1373.23904
G0 F9000 X45.456 Y149.259
G1 F900 X44.429 Y148.232 E1373.41333
G0 F9000 X44.429 Y148.798
G1 F900 X44.890 Y149.259 E1373.49156
G0 F9000 X60.446 Y73.739
G1 F900 X135.966 Y149.259 E1386.30773
G0 F9000 X136.531 Y149.259
G1 F900 X61.012 Y73.739 E1399.12381
G0 F9000 X61.577 Y73.739
G1 F900 X137.097 Y149.259 E1411.93998
G0 F9000 X137.663 Y149.259
G1 F900 X62.143 Y73.739 E1424.75615
G0 F9000 X62.709 Y73.739
G1 F900 X138.228 Y149.259 E1437.57224
G0 F9000 X138.794 Y149.259
G1 F900 X63.274 Y73.739 E1450.38841
G0 F9000 X63.840 Y73.739
G1 F900 X139.360 Y149.259 E1463.20457
G0 F9000 X139.925 Y149.259
G1 F900 X64.406 Y73.739 E1476.02066
G0 F9000 X64.971 Y73.739
G1 F900 X140.491 Y149.259 E1488.83683
G0 F9000 X141.057 Y149.259
G1 F900 X65.537 Y73.739 E1501.65300
G0 F9000 X66.103 Y73.739
G1 F900 X141.622 Y149.259 E1514.46908
G0 F9000 X142.188 Y149.259
G1 F900 X66.668 Y73.739 E1527.28525
G0 F9000 X67.234 Y73.739
G1 F900 X142.754 Y149.259 E1540.10142
G0 F9000 X143.319 Y149.259
G1 F900 X67.800 Y73.739 E1552.91750
G0 F9000 X68.365 Y73.739
G1 F900 X143.885 Y149.259 E1565.73367
G0 F9000 X144.451 Y149.259
G1 F900 X68.931 Y73.739 E1578.54984
G0 F9000 X69.497 Y73.739
G1 F900 X145.016 Y149.259 E1591.36592
G0 F9000 X145.582 Y149.259
G1 F900 X70.062 Y73.739 E1604.18209
G0 F9000 X70.628 Y73.739
G1 F900 X146.148 Y149.259 E1616.99826
G0 F9000 X146.714 Y149.259
G1 F900 X71.194 Y73.739 E1629.81443
G0 F9000 X71.760 Y73.739
G1 F900 X147.279 Y149.259 E1642.63052
G0 F9000 X147.845 Y149.259
G1 F900 X72.325 Y73.739 E1655.44668
G0 F9000 X72.891 Y73.739
G1 F900 X148.411 Y149.259 E1668.26285
G0 F9000 X148.976 Y149.259
G1 F900 X73.457 Y73.739 E1681.07894
G0 F9000 X74.022 Y73.739
G1 F900 X149.542 Y149.259 E1693.89511
G0 F9000 X150.108 Y149.259
G1 F900 X74.588 Y73.739 E1706.71128
G0 F9000 X75.154 Y73.739
G1 F900 X150.673 Y149.259 E1719.52736
G0 F9000 X151.239 Y149.259
G1 F900 X75.719 Y73.739 E1732.34353
G0 F9000 X76.285 Y73.739
G1 F900 X151.805 Y149.259 E1745.15970
G0 F9000 X152.370 Y149.259
G1 F900 X76.851 Y73.739 E1757.97578
G0 F9000 X77.416 Y73.739
G1 F900 X152.936 Y149.259 E1770.79195
G0 F9000 X153.502 Y149.259
G1 F900 X77.982 Y73.739 E1783.60812
G0 F9000 X78.548 Y73.739
G1 F900 X154.067 Y149.259 E1796.42420
G0 F9000 X154.633 Y149.259
G1 F900 X79.113 Y73.739 E1809.24037
G0 F9000 X79.679 Y73.739
G1 F900 X155.199 Y149.259 E1822.05654
G0 F9000 X155.765 Y149.259
G1 F900 X80.245 Y73.739 E1834.87271
G0 F9000 X80.810 Y73.739
G1 F900 X156.330 Y149.259 E1847.68888
G0 F9000 X156.896 Y149.259
G1 F900 X81.376 Y73.739 E1860.50505
G0 F9000 X81.942 Y73.739
G1 F900 X157.462 Y149.259 E1873.32122
G0 F9000 X158.027 Y149.259
G1 F900 X82.508 Y73.739 E1886.13730
G0 F9000 X83.073 Y73.739
G1 F900 X158.593 Y149.259 E1898.95347
G0 F9000 X159.159 Y149.259
G1 F900 X83.639 Y73.739 E1911.76964
G0 F9000 X84.205 Y73.739
G1 F900 X159.724 Y149.259 E1924.58572
G0 F9000 X160.290 Y149.259
G1 F900 X84.770 Y73.739 E1937.40189
G0 F9000 X85.336 Y73.739
G1 F900 X160.856 Y149.259 E1950.21806
G0 F9000 X161.421 Y149.259
G1 F900 X85.902 Y73.739 E1963.03415
G0 F9000 X86.467 Y73.739
G1 F900 X161.987 Y149.259 E1975.85032
G0 F9000 X162.553 Y149.259
G1 F900 X87.033 Y73.739 E1988.66648
G0 F9000 X87.599 Y73.739
G1 F900 X163.118 Y149.259 E2001.48257
G0 F9000 X163.684 Y149.259
G1 F900 X88.164 Y73.739 E2014.29874
G0 F9000 X88.730 Y73.739
G1 F900 X164.250 Y149.259 E2027.11491
G0 F9000 X164.815 Y149.259
G1 F900 X89.296 Y73.739 E2039.93099
G0 F9000 X89.861 Y73.739
G1 F900 X165.381 Y149.259 E2052.74716
G0 F9000 X165.947 Y149.259
G1 F900 X90.427 Y73.739 E2065.56333
G0 F9000 X90.993 Y73.739
G1 F900 X166.513 Y149.259 E2078.37950
G0 F9000 X167.078 Y149.259
G1 F900 X91.559 Y73.739 E2091.19558
G0 F9000 X92.124 Y73.739
G1 F900 X167.644 Y149.259 E2104.01175
G0 F9000 X168.210 Y149.259
G1 F900 X92.690 Y73.739 E2116.82792
G0 F9000 X93.256 Y73.739
G1 F900 X168.775 Y149.259 E2129.64400
G0 F9000 X169.341 Y149.259
G1 F900 X93.821 Y73.739 E2142.46017
G0 F9000 X94.387 Y73.739
G1 F900 X169.907 Y149.259 E2155.27634
G0 F9000 X170.472 Y149.259
G1 F900 X94.953 Y73.739 E2168.09243
G0 F9000 X95.518 Y73.739
G1 F900 X171.038 Y149.259 E2180.90859
G0 F9000 X171.604 Y149.259
G1 F900 X96.084 Y73.739 E2193.72476
G0 F9000 X96.650 Y73.739
G1 F900 X172.169 Y149.259 E2206.54085
G0 F9000 X172.735 Y149.259
G1 F900 X97.215 Y73.739 E2219.35702
G0 F9000 X97.781 Y73.739
G1 F900 X173.301 Y149.259 E2232.17319
G0 F9000 X173.866 Y149.259
G1 F900 X98.347 Y73.739 E2244.98927
G0 F9000 X98.912 Y73.739
G1 F900 X174.432 Y149.259 E2257.80544
G0 F9000 X174.998 Y149.259
G1 F900 X99.478 Y73.739 E2270.62161
G0 F9000 X100.044 Y73.739
G1 F900 X175.564 Y149.259 E2283.43778
G0 F9000 X176.129 Y149.259
G1 F900 X100.609 Y73.739 E2296.25395
G0 F9000 X101.175 Y73.739
G1 F900 X176.695 Y149.259 E2309.07012
G0 F9000 X177.261 Y149.259
G1 F900 X101.741 Y73.739 E2321.88628
G0 F9000 X102.307 Y73.739
G1 F900 X177.826 Y149.259 E2334.70237
G0 F9000 X178.392 Y149.259
G1 F900 X102.872 Y73.739 E2347.51854
G0 F9000 X103.438 Y73.739
G1 F900 X178.958 Y149.259 E2360.33471
G0 F9000 X179.523 Y149.259
