;FLAVOR:UltiGCode
;TIME:28922
;MATERIAL:23622
;MATERIAL2:0
;NOZZLE_DIAMETER:0.000000
;NOZZLE_DIAMETER2:0.000000

;Layer count: 443
;LAYER:0
M107
G0 F9000 X43.700 Y56.200 Z0.300
;TYPE:SKIRT
G1 F1200 X179.300 Y56.200 E16.27200
G1 X179.300 Y166.800 E29.54400
G1 X43.700 Y166.800 E45.81600
G1 X43.700 Y56.200 E59.08800
G0 F9000 X44.100 Y56.600
G1 F1200 X178.900 Y56.600 E75.26400
G1 X178.900 Y166.400 E88.44000
G1 X44.100 Y166.400 E104.61600
G1 X44.100 Y56.600 E117.79200
G0 F9000 X44.500 Y57.000
G1 F1200 X178.500 Y57.000 E133.87200
G1 X178.500 Y166.000 E146.95200
G1 X44.500 Y166.000 E163.03200
G1 X44.500 Y57.000 E176.11200
G0 F9000 X44.900 Y57.400
G1 F1200 X178.100 Y57.400 E192.09600
G1 X178.100 Y165.600 E205.08000
G1 X44.900 Y165.600 E221.06400
G1 X44.900 Y57.400 E234.04800
G0 F9000 X45.300 Y57.800
G1 F1200 X177.700 Y57.800 E249.93600
G1 X177.700 Y165.200 E262.82400
G1 X45.300 Y165.200 E278.71200
G1 X45.300 Y57.800 E291.60000
G0 F9000 X45.700 Y58.200
G1 F1200 X177.300 Y58.200 E307.39200
G1 X177.300 Y164.800 E320.18400
G1 X45.700 Y164.800 E335.97600
G1 X45.700 Y58.200 E348.76800
G0 F9000 X46.100 Y58.600
G1 F1200 X176.900 Y58.600 E364.46400
G1 X176.900 Y164.400 E377.16000
G1 X46.100 Y164.400 E392.85600
G1 X46.100 Y58.600 E405.55200
G0 F9000 X46.500 Y59.000
G1 F1200 X176.500 Y59.000 E421.15200
G1 X176.500 Y164.000 E433.75200
G1 X46.500 Y164.000 E449.35200
G1 X46.500 Y59.000 E461.95200
G0 F9000 X46.900 Y59.400
G1 F1200 X176.100 Y59.400 E477.45600
G1 X176.100 Y163.600 E489.96000
G1 X46.900 Y163.600 E505.46400
G1 X46.900 Y59.400 E517.96800
G0 F9000 X47.300 Y59.800
G1 F1200 X175.700 Y59.800 E533.37600
G1 X175.700 Y163.200 E545.78400
G1 X47.300 Y163.200 E561.19200
G1 X47.300 Y59.800 E573.60000
G0 F9000 X47.700 Y60.200
G1 F1200 X175.300 Y60.200 E588.91200
G1 X175.300 Y162.800 E601.22400
G1 X47.700 Y162.800 E616.53600
G1 X47.700 Y60.200 E628.84800
G0 F9000 X48.100 Y60.600
G1 F1200 X174.900 Y60.600 E644.06400
G1 X174.900 Y162.400 E656.28000
G1 X48.100 Y162.400 E671.49600
G1 X48.100 Y60.600 E683.71200
G0 F9000 X48.500 Y61.000
G1 F1200 X174.500 Y61.000 E698.83200
G1 X174.500 Y162.000 E710.95200
G1 X48.500 Y162.000 E726.07200
G1 X48.500 Y61.000 E738.19200
G0 F9000 X48.900 Y61.400
G1 F1200 X174.100 Y61.400 E753.21600
G1 X174.100 Y161.600 E765.24000
G1 X48.900 Y161.600 E780.26400
G1 X48.900 Y61.400 E792.28800
G0 F9000 X49.300 Y61.800
G1 F1200 X173.700 Y61.800 E807.21600
G1 X173.700 Y161.200 E819.14400
G1 X49.300 Y161.200 E834.07200
G1 X49.300 Y61.800 E846.00000
G0 F9000 X49.700 Y62.200
G1 F1200 X173.300 Y62.200 E860.83200
G1 X173.300 Y160.800 E872.66400
G1 X49.700 Y160.800 E887.49600
G1 X49.700 Y62.200 E899.32800
G0 F9000 X50.100 Y62.600
G1 F1200 X172.900 Y62.600 E914.06400
G1 X172.900 Y160.400 E925.80000
G1 X50.100 Y160.400 E940.53600
G1 X50.100 Y62.600 E952.27200
G0 F9000 X50.500 Y63.000
G1 F1200 X172.500 Y63.000 E966.91200
G1 X172.500 Y160.000 E978.55200
G1 X50.500 Y160.000 E993.19200
G1 X50.500 Y63.000 E1004.83200
G0 F9000 X50.900 Y63.400
G1 F1200 X172.100 Y63.400 E1019.37600
G1 X172.100 Y159.600 E1030.92000
G1 X50.900 Y159.600 E1045.46400
G1 X50.900 Y63.400 E1057.00800
G0 F9000 X51.300 Y63.800
G1 F1200 X171.700 Y63.800 E1071.45600
G1 X171.700 Y159.200 E1082.90400
G1 X51.300 Y159.200 E1097.35200
G1 X51.300 Y63.800 E1108.80000
G0 F9000 X52.100 Y64.600
;TYPE:WALL-INNER
G1 F1200 X170.900 Y64.600 E1123.05600
G1 X170.900 Y158.400 E1134.31200
G1 X52.100 Y158.400 E1148.56800
G1 X52.100 Y64.600 E1159.82400
G0 F9000 X51.700 Y64.200
;TYPE:WALL-OUTER
G1 F1200 X171.300 Y64.200 E1174.17600
G1 X171.300 Y158.800 E1185.52800
G1 X51.700 Y158.800 E1199.88000
G1 X51.700 Y64.200 E1211.23200
G0 F9000 X52.239 Y64.967
;TYPE:SKIN
G1 F900 X145.531 Y158.259 E1227.06418
G0 F9000 X144.966 Y158.259
G1 F900 X52.239 Y65.533 E1242.80039
G0 F9000 X52.239 Y66.098
G1 F900 X144.400 Y158.259 E1258.44063
G0 F9000 X143.834 Y158.259
G1 F900 X52.239 Y66.664 E1273.98481
G0 F9000 X52.239 Y67.230
G1 F900 X143.269 Y158.259 E1289.43303
G0 F9000 X142.703 Y158.259
G1 F900 X52.239 Y67.795 E1304.78528
G0 F9000 X52.239 Y68.361
G1 F900 X142.137 Y158.259 E1320.04148
G0 F9000 X141.571 Y158.259
G1 F900 X52.239 Y68.927 E1335.20162
G0 F9000 X52.239 Y69.493
G1 F900 X141.006 Y158.259 E1350.26580
G0 F9000 X140.440 Y158.259
G1 F900 X52.239 Y70.058 E1365.23400
G0 F9000 X52.239 Y70.624
G1 F900 X139.874 Y158.259 E1380.10615
G0 F9000 X139.309 Y158.259
G1 F900 X52.239 Y71.190 E1394.88234
G0 F9000 X52.239 Y71.755
G1 F900 X138.743 Y158.259 E1409.56255
G0 F9000 X138.177 Y158.259
G1 F900 X52.239 Y72.321 E1424.14672
G0 F9000 X52.239 Y72.887
G1 F900 X137.612 Y158.259 E1438.63491
G0 F9000 X137.046 Y158.259
G1 F900 X52.239 Y73.452 E1453.02714
G0 F9000 X52.239 Y74.018
G1 F900 X136.480 Y158.259 E1467.32331
G0 F9000 X135.915 Y158.259
G1 F900 X52.239 Y74.584 E1481.52351
G0 F9000 X52.239 Y75.149
G1 F900 X135.349 Y158.259 E1495.62775
G0 F9000 X134.783 Y158.259
G1 F900 X52.239 Y75.715 E1509.63593
G0 F9000 X52.239 Y76.281
G1 F900 X134.218 Y158.259 E1523.54814
G0 F9000 X133.652 Y158.259
G1 F900 X52.239 Y76.846 E1537.36438
G0 F9000 X52.239 Y77.412
G1 F900 X133.086 Y158.259 E1551.08457
G0 F9000 X132.521 Y158.259
G1 F900 X52.239 Y77.978 E1564.70880
G0 F9000 X52.239 Y78.544
G1 F900 X131.955 Y158.259 E1578.23697
G0 F9000 X131.389 Y158.259
G1 F900 X52.239 Y79.109 E1591.66917
G0 F9000 X52.239 Y79.675
G1 F900 X130.823 Y158.259 E1605.00531
G0 F9000 X130.258 Y158.259
G1 F900 X52.239 Y80.241 E1618.24549
G0 F9000 X52.239 Y80.806
G1 F900 X129.692 Y158.259 E1631.38970
G0 F9000 X129.126 Y158.259
G1 F900 X52.239 Y81.372 E1644.43786
G0 F9000 X52.239 Y81.938
G1 F900 X128.561 Y158.259 E1657.39005
G0 F9000 X127.995 Y158.259
G1 F900 X52.239 Y82.503 E1670.24627
G0 F9000 X52.239 Y83.069
G1 F900 X127.429 Y158.259 E1683.00643
G0 F9000 X126.864 Y158.259
G1 F900 X52.239 Y83.635 E1695.67063
G0 F9000 X52.239 Y84.200
G1 F900 X126.298 Y158.259 E1708.23886
G0 F9000 X125.732 Y158.259
G1 F900 X52.239 Y84.766 E1720.71103
G0 F9000 X52.239 Y85.332
G1 F900 X125.167 Y158.259 E1733.08724
G0 F9000 X124.601 Y158.259
G1 F900 X52.239 Y85.897 E1745.36748
G0 F9000 X52.239 Y86.463
G1 F900 X124.035 Y158.259 E1757.55167
G0 F9000 X123.470 Y158.259
G1 F900 X52.239 Y87.029 E1769.63988
G0 F9000 X52.239 Y87.594
G1 F900 X122.904 Y158.259 E1781.63213
G0 F9000 X122.338 Y158.259
G1 F900 X52.239 Y88.160 E1793.52832
G0 F9000 X52.239 Y88.726
G1 F900 X121.772 Y158.259 E1805.32847
G0 F9000 X121.207 Y158.259
G1 F900 X52.239 Y89.292 E1817.03264
G0 F9000 X52.239 Y89.857
G1 F900 X120.641 Y158.259 E1828.64084
G0 F9000 X120.075 Y158.259
G1 F900 X52.239 Y90.423 E1840.15299
G0 F9000 X52.239 Y90.989
G1 F900 X119.510 Y158.259 E1851.56918
G0 F9000 X118.944 Y158.259
G1 F900 X52.239 Y91.554 E1862.88939
G0 F9000 X52.239 Y92.120
G1 F900 X118.378 Y158.259 E1874.11355
G0 F9000 X117.813 Y158.259
G1 F900 X52.239 Y92.686 E1885.24174
G0 F9000 X52.239 Y93.251
G1 F900 X117.247 Y158.259 E1896.27397
G0 F9000 X116.681 Y158.259
G1 F900 X52.239 Y93.817 E1907.21014
G0 F9000 X52.239 Y94.383
G1 F900 X116.116 Y158.259 E1918.05034
G0 F9000 X115.550 Y158.259
G1 F900 X52.239 Y94.948 E1928.79457
G0 F9000 X52.239 Y95.514
G1 F900 X114.984 Y158.259 E1939.44275
G0 F9000 X114.419 Y158.259
G1 F900 X52.239 Y96.080 E1949.99496
G0 F9000 X52.239 Y96.645
G1 F900 X113.853 Y158.259 E1960.45120
G0 F9000 X113.287 Y158.259
G1 F900 X52.239 Y97.211 E1970.81139
G0 F9000 X52.239 Y97.777
G1 F900 X112.722 Y158.259 E1981.07561
G0 F9000 X112.156 Y158.259
G1 F900 X52.239 Y98.342 E1991.24387
G0 F9000 X52.239 Y98.908
G1 F900 X111.590 Y158.259 E2001.31606
G0 F9000 X111.024 Y158.258
G1 F900 X52.239 Y99.474 E2011.29213
G0 F9000 X52.239 Y100.040
G1 F900 X110.458 Y158.258 E2021.17213
G0 F9000 X109.892 Y158.258
G1 F900 X52.239 Y100.605 E2030.95617
G0 F9000 X52.239 Y101.171
G1 F900 X109.327 Y158.258 E2040.64424
G0 F9000 X108.761 Y158.258
G1 F900 X52.239 Y101.737 E2050.23626
G0 F9000 X52.239 Y102.302
G1 F900 X108.195 Y158.258 E2059.73231
G0 F9000 X107.630 Y158.258
G1 F900 X52.239 Y102.868 E2069.13239
G0 F9000 X52.239 Y103.434
G1 F900 X107.064 Y158.258 E2078.43641
G0 F9000 X106.498 Y158.258
G1 F900 X52.239 Y103.999 E2087.64447
G0 F9000 X52.239 Y104.565
G1 F900 X105.933 Y158.258 E2096.75656
G0 F9000 X105.367 Y158.258
G1 F900 X52.239 Y105.131 E2105.77259
G0 F9000 X52.239 Y105.696
G1 F900 X104.801 Y158.258 E2114.69266
G0 F9000 X104.236 Y158.258
G1 F900 X52.239 Y106.262 E2123.51676
G0 F9000 X52.239 Y106.828
G1 F900 X103.670 Y158.258 E2132.24481
G0 F9000 X103.104 Y158.258
G1 F900 X52.239 Y107.393 E2140.87688
G0 F9000 X52.239 Y107.959
G1 F900 X102.538 Y158.258 E2149.41291
G0 F9000 X101.973 Y158.258
G1 F900 X52.239 Y108.525 E2157.85296
G0 F9000 X52.239 Y109.091
G1 F900 X101.407 Y158.258 E2166.19696
G0 F9000 X100.841 Y158.258
G1 F900 X52.239 Y109.656 E2174.44499
G0 F9000 X52.239 Y110.222
G1 F900 X100.276 Y158.258 E2182.59706
G0 F9000 X99.710 Y158.258
G1 F900 X52.239 Y110.788 E2190.65307
G0 F9000 X52.239 Y111.353
G1 F900 X99.144 Y158.258 E2198.61311
G0 F9000 X98.579 Y158.258
G1 F900 X52.239 Y111.919 E2206.47719
G0 F9000 X52.239 Y112.485
G1 F900 X98.013 Y158.258 E2214.24521
G0 F9000 X97.447 Y158.258
G1 F900 X52.239 Y113.050 E2221.91726
G0 F9000 X52.239 Y113.616
G1 F900 X96.882 Y158.258 E2229.49334
G0 F9000 X96.316 Y158.258
G1 F900 X52.239 Y114.182 E2236.97337
G0 F9000 X52.239 Y114.747
G1 F900 X95.750 Y158.258 E2244.35743
G0 F9000 X95.185 Y158.258
G1 F900 X52.239 Y115.313 E2251.64553
G0 F9000 X52.239 Y115.879
G1 F900 X94.619 Y158.258 E2258.83757
G0 F9000 X94.053 Y158.258
G1 F900 X52.239 Y116.444 E2265.93364
G0 F9000 X52.239 Y117.010
G1 F900 X93.488 Y158.258 E2272.93374
G0 F9000 X92.922 Y158.258
G1 F900 X52.239 Y117.576 E2279.83779
G0 F9000 X52.239 Y118.141
G1 F900 X92.356 Y158.258 E2286.64587
G0 F9000 X91.790 Y158.258
G1 F900 X52.239 Y118.707 E2293.35790
G0 F9000 X52.239 Y119.273
G1 F900 X91.225 Y158.258 E2299.97396
G0 F9000 X90.659 Y158.258
G1 F900 X52.239 Y119.839 E2306.49396
G0 F9000 X52.239 Y120.404
G1 F900 X90.093 Y158.258 E2312.91800
G0 F9000 X89.528 Y158.258
G1 F900 X52.239 Y120.970 E2319.24607
G0 F9000 X52.239 Y121.536
G1 F900 X88.962 Y158.258 E2325.47808
G0 F9000 X88.396 Y158.258
G1 F900 X52.239 Y122.101 E2331.61413
G0 F9000 X52.239 Y122.667
G1 F900 X87.831 Y158.258 E2337.65421
G0 F9000 X87.265 Y158.258
G1 F900 X52.239 Y123.233 E2343.59823
G0 F9000 X52.239 Y123.798
G1 F900 X86.699 Y158.258 E2349.44629
G0 F9000 X86.134 Y158.258
G1 F900 X52.239 Y124.364 E2355.19837
G0 F9000 X52.239 Y124.930
G1 F900 X85.568 Y158.258 E2360.85441
G0 F9000 X85.002 Y158.258
G1 F900 X52.239 Y125.495 E2366.41447
G0 F9000 X52.239 Y126.061
G1 F900 X84.437 Y158.258 E2371.87857
G0 F9000 X83.871 Y158.258
G1 F900 X52.239 Y126.627 E2377.24661
G0 F9000 X52.239 Y127.192
G1 F900 X83.305 Y158.258 E2382.51869
G0 F9000 X82.739 Y158.258
G1 F900 X52.239 Y127.758 E2387.69471
G0 F9000 X52.239 Y128.324
G1 F900 X82.174 Y158.258 E2392.77476
G0 F9000 X81.608 Y158.258
G1 F900 X52.239 Y128.890 E2397.75876
G0 F9000 X52.239 Y129.455
G1 F900 X81.042 Y158.258 E2402.64679
G0 F9000 X80.477 Y158.258
G1 F900 X52.239 Y130.021 E2407.43886
G0 F9000 X52.239 Y130.587
G1 F900 X79.911 Y158.258 E2412.13487
G0 F9000 X79.345 Y158.258
G1 F900 X52.239 Y131.152 E2416.73491
G0 F9000 X52.239 Y131.718
G1 F900 X78.780 Y158.258 E2421.23898
G0 F9000 X78.214 Y158.258
G1 F900 X52.239 Y132.284 E2425.64700
G0 F9000 X52.239 Y132.849
G1 F900 X77.648 Y158.258 E2429.95905
G0 F9000 X77.083 Y158.258
G1 F900 X52.239 Y133.415 E2434.17513
G0 F9000 X52.239 Y133.981
G1 F900 X76.517 Y158.258 E2438.29516
G0 F9000 X75.951 Y158.258
G1 F900 X52.239 Y134.546 E2442.31922
G0 F9000 X52.239 Y135.112
G1 F900 X75.386 Y158.258 E2446.24731
G0 F9000 X74.820 Y158.258
G1 F900 X52.239 Y135.678 E2450.07935
G0 F9000 X52.239 Y136.243
G1 F900 X74.254 Y158.258 E2453.81542
G0 F9000 X73.689 Y158.258
G1 F900 X52.239 Y136.809 E2457.45552
G0 F9000 X52.239 Y137.375
G1 F900 X73.123 Y158.258 E2460.99956
G0 F9000 X72.557 Y158.258
G1 F900 X52.239 Y137.940 E2464.44764
G0 F9000 X52.239 Y138.506
G1 F900 X71.991 Y158.258 E2467.79967
G0 F9000 X71.426 Y158.258
G1 F900 X52.239 Y139.072 E2471.05573
G0 F9000 X52.239 Y139.638
G1 F900 X70.860 Y158.258 E2474.21573
G0 F9000 X70.294 Y158.258
G1 F900 X52.239 Y140.203 E2477.27977
G0 F9000 X52.239 Y140.769
G1 F900 X69.729 Y158.258 E2480.24783
G0 F9000 X69.163 Y158.258
G1 F900 X52.239 Y141.335 E2483.11984
G0 F9000 X52.239 Y141.900
G1 F900 X68.597 Y158.258 E2485.89589
G0 F9000 X68.032 Y158.258
G1 F900 X52.239 Y142.466 E2488.57597
G0 F9000 X52.239 Y143.032
G1 F900 X67.466 Y158.258 E2491.15999
G0 F9000 X66.900 Y158.258
G1 F900 X52.239 Y143.597 E2493.64804
G0 F9000 X52.239 Y144.163
G1 F900 X66.335 Y158.258 E2496.04013
G0 F9000 X65.769 Y158.258
G1 F900 X52.239 Y144.729 E2498.33616
G0 F9000 X52.239 Y145.294
G1 F900 X65.203 Y158.258 E2500.53622
G0 F9000 X64.638 Y158.258
G1 F900 X52.239 Y145.860 E2502.64032
G0 F9000 X52.239 Y146.426
G1 F900 X64.072 Y158.258 E2504.64836
G0 F9000 X63.506 Y158.258
G1 F900 X52.239 Y146.991 E2506.56043
G0 F9000 X52.239 Y147.557
G1 F900 X62.940 Y158.258 E2508.37645
G0 F9000 X62.375 Y158.258
G1 F900 X52.239 Y148.123 E2510.09651
G0 F9000 X52.239 Y148.688
G1 F900 X61.809 Y158.258 E2511.72059
G0 F9000 X61.243 Y158.258
G1 F900 X52.239 Y149.254 E2513.24862
G0 F9000 X52.239 Y149.820
G1 F900 X60.678 Y158.258 E2514.68068
G0 F9000 X60.112 Y158.258
G1 F900 X52.239 Y150.386 E2516.01669
G0 F9000 X52.239 Y150.951
G1 F900 X59.546 Y158.258 E2517.25673
G0 F9000 X58.981 Y158.258
G1 F900 X52.239 Y151.517 E2518.40080
G0 F9000 X52.239 Y152.083
G1 F900 X58.415 Y158.258 E2519.44881
G0 F9000 X57.849 Y158.258
G1 F900 X52.239 Y152.648 E2520.40086
G0 F9000 X52.239 Y153.214
G1 F900 X57.284 Y158.258 E2521.25694
G0 F9000 X56.718 Y158.258
G1 F900 X52.239 Y153.780 E2522.01697
G0 F9000 X52.239 Y154.345
G1 F900 X56.152 Y158.258 E2522.68103
G0 F9000 X55.587 Y158.258
G1 F900 X52.239 Y154.911 E2523.24912
G0 F9000 X52.239 Y155.477
G1 F900 X55.021 Y158.258 E2523.72115
G0 F9000 X54.455 Y158.258
G1 F900 X52.239 Y156.042 E2524.09722
G0 F9000 X52.239 Y156.608
G1 F900 X53.890 Y158.258 E2524.37732
G0 F9000 X53.324 Y158.258
G1 F900 X52.239 Y157.174 E2524.56137
G0 F9000 X52.239 Y157.739
G1 F900 X52.758 Y158.258 E2524.64944
G0 F9000 X146.097 Y158.259
G1 F900 X52.577 Y64.739 E2540.52031
G0 F9000 X53.143 Y64.739
G1 F900 X146.663 Y158.259 E2556.39118
G0 F9000 X147.228 Y158.259
G1 F900 X53.709 Y64.739 E2572.26197
G0 F9000 X54.274 Y64.739
G1 F900 X147.794 Y158.259 E2588.13284
G0 F9000 X148.360 Y158.259
G1 F900 X54.840 Y64.739 E2604.00371
G0 F9000 X55.406 Y64.739
G1 F900 X148.925 Y158.259 E2619.87449
G0 F9000 X149.491 Y158.259
G1 F900 X55.971 Y64.739 E2635.74536
G0 F9000 X56.537 Y64.739
G1 F900 X150.057 Y158.259 E2651.61623
G0 F9000 X150.622 Y158.259
G1 F900 X57.103 Y64.739 E2667.48702
G0 F9000 X57.668 Y64.739
G1 F900 X151.188 Y158.259 E2683.35789
G0 F9000 X151.754 Y158.259
G1 F900 X58.234 Y64.739 E2699.22876
G0 F9000 X58.800 Y64.739
G1 F900 X152.319 Y158.259 E2715.09955
G0 F9000 X152.885 Y158.259
G1 F900 X59.365 Y64.739 E2730.97042
G0 F9000 X59.931 Y64.739
G1 F900 X153.451 Y158.259 E2746.84129
G0 F9000 X154.017 Y158.259
G1 F900 X60.497 Y64.739 E2762.71216
G0 F9000 X61.062 Y64.739
G1 F900 X154.582 Y158.259 E2778.58303
G0 F9000 X155.148 Y158.259
G1 F900 X61.628 Y64.739 E2794.45390
G0 F9000 X62.194 Y64.739
G1 F900 X155.714 Y158.259 E2810.32477
G0 F9000 X156.279 Y158.259
G1 F900 X62.759 Y64.739 E2826.19564
G0 F9000 X63.325 Y64.739
G1 F900 X156.845 Y158.259 E2842.06651
G0 F9000 X157.411 Y158.259
G1 F900 X63.891 Y64.739 E2857.93738
G0 F9000 X64.457 Y64.739
G1 F900 X157.976 Y158.259 E2873.80816
G0 F9000 X158.542 Y158.259
G1 F900 X65.022 Y64.739 E2889.67903
G0 F9000 X65.588 Y64.739
G1 F900 X159.108 Y158.259 E2905.54990
G0 F9000 X159.673 Y158.259
G1 F900 X66.154 Y64.739 E2921.42069
G0 F9000 X66.719 Y64.739
G1 F900 X160.239 Y158.259 E2937.29156
G0 F9000 X160.805 Y158.259
G1 F900 X67.285 Y64.739 E2953.16243
G0 F9000 X67.851 Y64.739
G1 F900 X161.370 Y158.259 E2969.03322
G0 F9000 X161.936 Y158.259
G1 F900 X68.416 Y64.739 E2984.90409
G0 F9000 X68.982 Y64.739
G1 F900 X162.502 Y158.259 E3000.77496
G0 F9000 X163.068 Y158.259
G1 F900 X69.548 Y64.739 E3016.64583
